;FLAVOR:Marlin
;TIME:12613
;Filament used: 8.9352m
;Layer height: 0.2
;MINX:9.5
;MINY:51.5
;MINZ:0.2
;MAXX:225.5
;MAXY:183.5
;MAXZ:3
;TARGET_MACHINE.NAME:Creality Ender-3
;Generated with Cura_SteamEngine 5.6.0
M140 S50
M105
M190 S50
M104 S200
M105
M109 S200
M82 ;absolute extrusion mode
; Ender 3 Custom Start G-code
G92 E0 ; Reset Extruder
G28 ; Home all axes
G1 Z2.0 F3000 ; Move Z Axis up little to prevent scratching of Heat Bed
G1 X0.1 Y20 Z0.3 F5000.0 ; Move to start position
G1 X0.1 Y200.0 Z0.3 F1500.0 E15 ; Draw the first line
G1 X0.4 Y200.0 Z0.3 F5000.0 ; Move to side a little
G1 X0.4 Y20 Z0.3 F1500.0 E30 ; Draw the second line
G92 E0 ; Reset Extruder
G1 Z2.0 F3000 ; Move Z Axis up little to prevent scratching of Heat Bed
G1 X5 Y20 Z0.3 F5000.0 ; Move over to prevent blob squish
G92 E0
G92 E0
G1 F2700 E-5
;LAYER_COUNT:15
;LAYER:0
M107
G0 F6000 X17.112 Y52.048 Z0.2
;TYPE:SKIRT
G1 F2700 E0
G1 F1200 X18.049 Y51.789 E0.03233
G1 X19.016 Y51.611 E0.06504
G1 X20.155 Y51.515 E0.10305
G1 X20.812 Y51.5 E0.12491
G1 X213.804 Y51.5 E6.54385
G1 X214.684 Y51.513 E6.57312
G1 X215.656 Y51.572 E6.60551
G1 X216.619 Y51.718 E6.63791
G1 X217.566 Y51.949 E6.67033
G1 X218.454 Y52.249 E6.7015
G1 X219.346 Y52.639 E6.73388
G1 X220.229 Y53.126 E6.76742
G1 X220.98 Y53.628 E6.79747
G1 X221.795 Y54.286 E6.83231
G1 X222.493 Y54.964 E6.86467
G1 X223.129 Y55.701 E6.89705
G1 X223.699 Y56.491 E6.92945
G1 X224.161 Y57.267 E6.95949
G1 X224.615 Y58.209 E6.99427
G1 X224.944 Y59.087 E7.02545
G1 X225.213 Y60.059 E7.059
G1 X225.39 Y61.025 E7.09166
G1 X225.485 Y62.155 E7.12938
G1 X225.5 Y62.83 E7.15183
G1 X225.499 Y171.9 E10.77952
G1 X225.488 Y172.663 E10.8049
G1 X225.431 Y173.636 E10.83731
G1 X225.286 Y174.599 E10.86971
G1 X225.057 Y175.545 E10.90208
G1 X224.746 Y176.469 E10.9345
G1 X224.354 Y177.36 E10.96688
G1 X223.886 Y178.212 E10.99921
G1 X223.364 Y178.993 E11.03046
G1 X222.731 Y179.778 E11.064
G1 X222.106 Y180.429 E11.09401
G1 X221.317 Y181.117 E11.12883
G1 X220.557 Y181.667 E11.16003
G1 X219.69 Y182.184 E11.19361
G1 X218.812 Y182.606 E11.22601
G1 X217.901 Y182.948 E11.25837
G1 X216.962 Y183.209 E11.29079
G1 X215.996 Y183.387 E11.32346
G1 X214.845 Y183.485 E11.36188
G1 X214.17 Y183.5 E11.38433
G1 X21.064 Y183.499 E17.80707
G1 X20.331 Y183.488 E17.83145
G1 X19.359 Y183.431 E17.86383
G1 X18.396 Y183.285 E17.89623
G1 X17.45 Y183.056 E17.9286
G1 X16.526 Y182.744 E17.96104
G1 X15.636 Y182.352 E17.99338
G1 X14.813 Y181.901 E18.0246
G1 X13.974 Y181.34 E18.05817
G1 X13.27 Y180.774 E18.08821
G1 X12.517 Y180.049 E18.12298
G1 X11.88 Y179.313 E18.15535
G1 X11.35 Y178.582 E18.18538
G1 X10.814 Y177.685 E18.22014
G1 X10.392 Y176.807 E18.25254
G1 X10.05 Y175.895 E18.28493
G1 X9.79 Y174.957 E18.31731
G1 X9.612 Y173.988 E18.35008
G1 X9.514 Y172.809 E18.38943
G1 X9.5 Y172.158 E18.41108
G1 X9.501 Y63.025 E22.04086
G1 X9.512 Y62.325 E22.06415
G1 X9.57 Y61.352 E22.09657
G1 X9.716 Y60.389 E22.12896
G1 X9.946 Y59.443 E22.16134
G1 X10.259 Y58.52 E22.19376
G1 X10.651 Y57.63 E22.2261
G1 X11.121 Y56.777 E22.2585
G1 X11.664 Y55.969 E22.29088
G1 X12.231 Y55.265 E22.32094
G1 X12.956 Y54.513 E22.35568
G1 X13.692 Y53.876 E22.38806
G1 X14.424 Y53.346 E22.41812
G1 X15.321 Y52.811 E22.45285
G1 X16.199 Y52.39 E22.48524
G1 X17.112 Y52.048 E22.51767
G0 F6000 X17.219 Y52.433
G1 F1200 X18.122 Y52.182 E22.54884
G1 X19.05 Y52.01 E22.58023
G1 X20.189 Y51.914 E22.61825
G1 X20.821 Y51.9 E22.63927
G1 X213.798 Y51.9 E29.05771
G1 X214.66 Y51.912 E29.08639
G1 X215.597 Y51.968 E29.11761
G1 X216.525 Y52.107 E29.14882
G1 X217.438 Y52.328 E29.18006
G1 X218.294 Y52.616 E29.2101
G1 X219.186 Y53.006 E29.24248
G1 X220.007 Y53.459 E29.27367
G1 X220.758 Y53.961 E29.30371
G1 X221.517 Y54.573 E29.33614
G1 X222.191 Y55.226 E29.36735
G1 X222.805 Y55.935 E29.39855
G1 X223.355 Y56.696 E29.42978
G1 X223.817 Y57.472 E29.45982
G1 X224.24 Y58.349 E29.4922
G1 X224.569 Y59.227 E29.52339
G1 X224.82 Y60.132 E29.55462
G1 X224.991 Y61.059 E29.58598
G1 X225.086 Y62.189 E29.62369
G1 X225.1 Y62.83 E29.64502
G1 X225.099 Y171.895 E33.27253
G1 X225.089 Y172.64 E33.29731
G1 X225.035 Y173.577 E33.32853
G1 X224.897 Y174.506 E33.35977
G1 X224.678 Y175.418 E33.39096
G1 X224.38 Y176.308 E33.42218
G1 X224.003 Y177.168 E33.45341
G1 X223.553 Y177.99 E33.48458
G1 X223.031 Y178.771 E33.51582
G1 X222.442 Y179.501 E33.54702
G1 X221.817 Y180.152 E33.57704
G1 X221.082 Y180.793 E33.60948
G1 X220.322 Y181.343 E33.64068
G1 X219.516 Y181.824 E33.6719
G1 X218.671 Y182.232 E33.70311
G1 X217.793 Y182.563 E33.73431
G1 X216.889 Y182.816 E33.76554
G1 X215.962 Y182.988 E33.7969
G1 X214.811 Y183.086 E33.83532
G1 X214.17 Y183.1 E33.85664
G1 X21.07 Y183.099 E40.27917
G1 X20.354 Y183.089 E40.30299
G1 X19.418 Y183.035 E40.33417
G1 X18.489 Y182.896 E40.36542
G1 X17.577 Y182.677 E40.39661
G1 X16.687 Y182.378 E40.42784
G1 X15.828 Y182.001 E40.45904
G1 X15.005 Y181.55 E40.49025
G1 X14.225 Y181.028 E40.52147
G1 X13.521 Y180.462 E40.55151
G1 X12.819 Y179.787 E40.5839
G1 X12.204 Y179.078 E40.61512
G1 X11.674 Y178.347 E40.64515
G1 X11.174 Y177.511 E40.67755
G1 X10.766 Y176.666 E40.70876
G1 X10.435 Y175.788 E40.73997
G1 X10.183 Y174.884 E40.77118
G1 X10.011 Y173.955 E40.80261
G1 X9.913 Y172.776 E40.84196
G1 X9.9 Y172.158 E40.86252
G1 X9.901 Y63.031 E44.49209
G1 X9.911 Y62.348 E44.51481
G1 X9.966 Y61.411 E44.54603
G1 X10.105 Y60.483 E44.57724
G1 X10.325 Y59.571 E44.60844
G1 X10.625 Y58.681 E44.63968
G1 X11.002 Y57.822 E44.67088
G1 X11.453 Y57 E44.70207
G1 X11.976 Y56.22 E44.7333
G1 X12.543 Y55.516 E44.76337
G1 X13.218 Y54.815 E44.79574
G1 X13.927 Y54.2 E44.82695
G1 X14.659 Y53.67 E44.85701
G1 X15.495 Y53.171 E44.88939
G1 X16.34 Y52.764 E44.92059
G1 X17.219 Y52.433 E44.95183
G0 F6000 X17.327 Y52.818
G1 F1200 X18.196 Y52.575 E44.98184
G1 X19.084 Y52.409 E45.01189
G1 X20.223 Y52.313 E45.0499
G1 X20.83 Y52.3 E45.0701
G1 X213.793 Y52.3 E51.48807
G1 X214.637 Y52.311 E51.51615
G1 X215.539 Y52.364 E51.5462
G1 X216.432 Y52.496 E51.57622
G1 X217.31 Y52.707 E51.60626
G1 X218.166 Y52.995 E51.6363
G1 X218.993 Y53.357 E51.66632
G1 X219.785 Y53.792 E51.69638
G1 X220.536 Y54.294 E51.72642
G1 X221.239 Y54.861 E51.75646
G1 X221.889 Y55.488 E51.7865
G1 X222.481 Y56.17 E51.81653
G1 X223.011 Y56.901 E51.84657
G1 X223.473 Y57.677 E51.8766
G1 X223.866 Y58.49 E51.90664
G1 X224.184 Y59.335 E51.93667
G1 X224.427 Y60.205 E51.96671
G1 X224.592 Y61.093 E51.99675
G1 X224.687 Y62.223 E52.03447
G1 X224.7 Y62.83 E52.05466
G1 X224.699 Y171.89 E55.68201
G1 X224.69 Y172.617 E55.70619
G1 X224.639 Y173.519 E55.73624
G1 X224.508 Y174.413 E55.76629
G1 X224.299 Y175.291 E55.79631
G1 X224.013 Y176.148 E55.82636
G1 X223.652 Y176.976 E55.8564
G1 X223.22 Y177.768 E55.88641
G1 X222.719 Y178.52 E55.91646
G1 X222.153 Y179.224 E55.94651
G1 X221.528 Y179.875 E55.97652
G1 X220.847 Y180.469 E56.00658
G1 X220.116 Y181 E56.03663
G1 X219.342 Y181.464 E56.06665
G1 X218.529 Y181.858 E56.09669
G1 X217.685 Y182.178 E56.12672
G1 X216.815 Y182.423 E56.15678
G1 X215.928 Y182.589 E56.18679
G1 X214.777 Y182.687 E56.22521
G1 X214.17 Y182.7 E56.24541
G1 X21.075 Y182.699 E62.66777
G1 X20.377 Y182.69 E62.69099
G1 X19.476 Y182.639 E62.721
G1 X18.582 Y182.507 E62.75106
G1 X17.704 Y182.298 E62.78108
G1 X16.847 Y182.011 E62.81114
G1 X16.02 Y181.65 E62.84115
G1 X15.227 Y181.217 E62.8712
G1 X14.476 Y180.716 E62.90123
G1 X13.772 Y180.15 E62.93127
G1 X13.121 Y179.524 E62.96131
G1 X12.528 Y178.843 E62.99135
G1 X11.998 Y178.112 E63.02138
G1 X11.534 Y177.337 E63.05142
G1 X11.14 Y176.524 E63.08147
G1 X10.82 Y175.68 E63.11149
G1 X10.576 Y174.81 E63.14154
G1 X10.41 Y173.922 E63.17159
G1 X10.313 Y172.767 E63.21014
G1 X10.3 Y172.158 E63.2304
G1 X10.301 Y63.036 E66.85981
G1 X10.31 Y62.371 E66.88193
G1 X10.362 Y61.469 E66.91198
G1 X10.494 Y60.576 E66.94201
G1 X10.704 Y59.698 E66.97203
G1 X10.991 Y58.841 E67.00209
G1 X11.353 Y58.014 E67.03212
G1 X11.786 Y57.222 E67.06214
G1 X12.288 Y56.471 E67.09219
G1 X12.855 Y55.767 E67.12225
G1 X13.481 Y55.117 E67.15227
G1 X14.162 Y54.524 E67.1823
G1 X14.894 Y53.994 E67.21236
G1 X15.669 Y53.531 E67.24239
G1 X16.482 Y53.138 E67.27242
G1 X17.327 Y52.818 E67.30247
G1 F2700 E62.30247
;MESH:driver_plate_top_v1.obj
G0 F6000 X62.473 Y71.615
G0 X62.283 Y71.557
;TYPE:WALL-OUTER
G1 F2700 E67.30247
G1 F1200 X63.151 Y70.963 E67.33745
G1 X63.634 Y70.046 E67.37193
G1 X63.698 Y69.524 E67.38942
G1 X63.633 Y68.961 E67.40827
G1 X63.153 Y68.038 E67.44287
G1 X62.281 Y67.443 E67.47798
G1 X61.242 Y67.311 E67.51282
G1 X60.257 Y67.679 E67.54779
G1 X59.548 Y68.473 E67.58319
G1 X59.294 Y69.503 E67.61848
G1 X59.547 Y70.526 E67.65353
G1 X60.249 Y71.312 E67.68858
G1 X61.225 Y71.687 E67.72336
G1 X62.283 Y71.557 E67.75881
G1 F2700 E62.75881
G0 F6000 X62.473 Y71.615
G0 X20.969 Y172.149
G0 X20.701 Y172.299
G1 F2700 E67.75881
G1 F1200 X20.7 Y62.7 E71.40409
G1 X214.3 Y62.7 E77.84325
G1 X214.3 Y172.3 E81.48856
G1 X20.701 Y172.299 E87.92769
G1 F2700 E82.92769
G0 F6000 X20.969 Y172.149
G0 X62.87 Y158.227
G1 F2700 E87.92769
G1 F1200 X63.482 Y157.463 E87.96025
G1 X63.699 Y156.52 E87.99243
G1 X63.7 Y152.483 E88.1267
G1 X63.48 Y151.54 E88.15891
G1 X62.876 Y150.782 E88.19114
G1 X62.009 Y150.359 E88.22323
G1 X61.01 Y150.35 E88.25646
G1 X60.127 Y150.774 E88.28904
G1 X59.514 Y151.542 E88.32172
G1 X59.3 Y152.483 E88.35382
G1 X59.301 Y156.52 E88.48809
G1 X59.521 Y157.461 E88.52023
G1 X60.127 Y158.226 E88.55269
G1 X61.003 Y158.649 E88.58505
G1 X62.001 Y158.647 E88.61824
G1 X62.87 Y158.227 E88.65034
G1 F2700 E83.65034
G0 F6000 X110.684 Y157.759
G0 X110.871 Y157.669
G1 F2700 E88.65034
G1 F1200 X113.343 Y157.369 E88.73316
G1 X115.396 Y155.954 E88.81609
G1 X116.546 Y153.758 E88.89854
G1 X116.698 Y152.51 E88.94036
G1 X116.541 Y151.227 E88.98335
G1 X115.399 Y149.048 E89.06517
G1 X113.349 Y147.633 E89.14802
G1 X110.876 Y147.331 E89.23088
G1 X108.544 Y148.214 E89.31382
G1 X106.895 Y150.075 E89.39652
G1 X106.294 Y152.501 E89.47965
G1 X106.889 Y154.916 E89.56237
G1 X108.537 Y156.779 E89.6451
G1 X110.871 Y157.669 E89.72818
G1 F2700 E84.72818
G0 F6000 X110.684 Y157.759
G0 X118.81 Y147.808
G0 X118.864 Y147.666
G1 F2700 E89.72818
G1 F1200 X121.343 Y147.369 E89.81123
G1 X123.398 Y145.952 E89.89425
G1 X124.548 Y143.752 E89.97682
G1 X124.698 Y142.495 E90.01892
G1 X124.544 Y141.235 E90.06114
G1 X123.393 Y139.044 E90.14346
G1 X121.348 Y137.634 E90.22607
G1 X118.864 Y137.334 E90.30929
G1 X116.543 Y138.214 E90.39185
G1 X114.889 Y140.085 E90.47491
G1 X114.292 Y142.5 E90.55765
G1 X114.889 Y144.915 E90.64039
G1 X116.541 Y146.784 E90.72336
G1 X118.864 Y147.666 E90.806
G1 F2700 E85.806
G0 F6000 X118.81 Y147.808
G0 X110.894 Y137.818
G0 X110.876 Y137.669
G1 F2700 E90.806
G1 F1200 X113.349 Y137.367 E90.88887
G1 X115.398 Y135.952 E90.97169
G1 X116.547 Y133.755 E91.05415
G1 X116.698 Y132.497 E91.09629
G1 X116.541 Y131.227 E91.13885
G1 X115.399 Y129.048 E91.22068
G1 X113.349 Y127.633 E91.30353
G1 X110.876 Y127.331 E91.38639
G1 X108.544 Y128.214 E91.46933
G1 X106.89 Y130.082 E91.55231
G1 X106.294 Y132.498 E91.63508
G1 X106.89 Y134.915 E91.71787
G1 X108.544 Y136.786 E91.80093
G1 X110.876 Y137.669 E91.88387
G1 F2700 E86.88387
G0 F6000 X110.894 Y137.818
G0 X118.811 Y127.807
G0 X118.864 Y127.666
G1 F2700 E91.88387
G1 F1200 X121.348 Y127.366 E91.96709
G1 X123.398 Y125.953 E92.0499
G1 X124.548 Y123.761 E92.13223
G1 X124.698 Y122.516 E92.17394
G1 X124.544 Y121.236 E92.21682
G1 X123.393 Y119.044 E92.29917
G1 X121.348 Y117.634 E92.38178
G1 X118.864 Y117.334 E92.465
G1 X116.543 Y118.214 E92.54756
G1 X114.889 Y120.085 E92.63062
G1 X114.292 Y122.5 E92.71336
G1 X114.889 Y124.915 E92.7961
G1 X116.541 Y126.784 E92.87907
G1 X118.864 Y127.666 E92.96171
G1 F2700 E87.96171
G0 F6000 X118.811 Y127.807
G0 X110.894 Y117.818
G0 X110.876 Y117.669
G1 F2700 E92.96171
G1 F1200 X113.349 Y117.367 E93.04458
G1 X115.398 Y115.952 E93.1274
G1 X116.547 Y113.755 E93.20986
G1 X116.698 Y112.497 E93.252
G1 X116.541 Y111.227 E93.29456
G1 X115.399 Y109.048 E93.37639
G1 X113.349 Y107.633 E93.45924
G1 X110.876 Y107.331 E93.5421
G1 X108.544 Y108.214 E93.62504
G1 X106.89 Y110.086 E93.70812
G1 X106.295 Y112.488 E93.79043
G1 X106.89 Y114.918 E93.87364
G1 X108.544 Y116.786 E93.95662
G1 X110.876 Y117.669 E94.03956
G1 F2700 E89.03956
G0 F6000 X110.894 Y117.818
G0 X118.811 Y107.807
G0 X118.864 Y107.666
G1 F2700 E94.03956
G1 F1200 X121.348 Y107.366 E94.12278
G1 X123.398 Y105.953 E94.20559
G1 X124.549 Y103.748 E94.28831
G1 X124.699 Y102.495 E94.33029
G1 X124.546 Y101.242 E94.37227
G1 X123.393 Y99.044 E94.45483
G1 X121.348 Y97.634 E94.53744
G1 X118.864 Y97.334 E94.62066
G1 X116.543 Y98.214 E94.70322
G1 X114.889 Y100.085 E94.78628
G1 X114.292 Y102.5 E94.86902
G1 X114.889 Y104.915 E94.95176
G1 X116.541 Y106.784 E95.03473
G1 X118.864 Y107.666 E95.11737
G1 F2700 E90.11737
G0 F6000 X118.811 Y107.807
G0 X110.894 Y97.818
G0 X110.876 Y97.669
G1 F2700 E95.11737
G1 F1200 X113.349 Y97.367 E95.20024
G1 X115.398 Y95.952 E95.28306
G1 X116.547 Y93.755 E95.36552
G1 X116.698 Y92.497 E95.40766
G1 X116.541 Y91.227 E95.45022
G1 X115.399 Y89.048 E95.53205
G1 X113.349 Y87.633 E95.6149
G1 X110.876 Y87.331 E95.69776
G1 X108.544 Y88.214 E95.7807
G1 X106.889 Y90.085 E95.86378
G1 X106.294 Y92.494 E95.94631
G1 X106.889 Y94.915 E96.02923
G1 X108.544 Y96.786 E96.11231
G1 X110.876 Y97.669 E96.19525
G1 F2700 E91.19525
G0 F6000 X110.894 Y97.818
G0 X110.894 Y77.818
G0 X110.876 Y77.669
G1 F2700 E96.19525
G1 F1200 X113.349 Y77.367 E96.27811
G1 X115.398 Y75.952 E96.36093
G1 X116.547 Y73.755 E96.44339
G1 X116.698 Y72.482 E96.48603
G1 X116.547 Y71.236 E96.52778
G1 X115.398 Y69.047 E96.61
G1 X113.346 Y67.632 E96.69291
G1 X110.88 Y67.332 E96.77553
G1 X108.552 Y68.21 E96.85828
G1 X106.893 Y70.078 E96.94138
G1 X106.293 Y72.498 E97.0243
G1 X106.89 Y74.917 E97.10718
G1 X108.544 Y76.786 E97.19018
G1 X110.876 Y77.669 E97.27312
G1 F2700 E92.27312
G0 F6000 X110.894 Y77.818
G0 X118.811 Y87.807
G0 X118.864 Y87.666
G1 F2700 E97.27312
G1 F1200 X121.348 Y87.366 E97.35634
G1 X123.398 Y85.953 E97.43915
G1 X124.548 Y83.762 E97.52145
G1 X124.698 Y82.498 E97.56379
G1 X124.548 Y81.248 E97.60566
G1 X123.395 Y79.045 E97.68836
G1 X121.349 Y77.634 E97.77103
G1 X118.864 Y77.334 E97.85428
G1 X116.543 Y78.214 E97.93684
G1 X114.889 Y80.085 E98.0199
G1 X114.292 Y82.5 E98.10264
G1 X114.889 Y84.915 E98.18538
G1 X116.541 Y86.784 E98.26834
G1 X118.864 Y87.666 E98.35099
G1 F2700 E93.35099
G0 F6000 X118.811 Y87.807
G0 X158.234 Y71.689
G1 F2700 E98.35099
G1 F1200 X159.279 Y71.563 E98.386
G1 X160.151 Y70.96 E98.42126
G1 X160.634 Y70.046 E98.45564
G1 X160.699 Y69.502 E98.47386
G1 X160.633 Y68.961 E98.49199
G1 X160.153 Y68.038 E98.52659
G1 X159.281 Y67.443 E98.56171
G1 X158.242 Y67.311 E98.59654
G1 X157.257 Y67.679 E98.63151
G1 X156.548 Y68.473 E98.66692
G1 X156.294 Y69.503 E98.7022
G1 X156.546 Y70.522 E98.73712
G1 X157.25 Y71.318 E98.77246
G1 X158.234 Y71.689 E98.80744
G1 F2700 E93.80744
G0 F6000 X191.544 Y76.786
G1 F2700 E98.80744
G1 F1200 X193.876 Y77.669 E98.89037
G1 X196.349 Y77.367 E98.97324
G1 X198.398 Y75.952 E99.05606
G1 X199.547 Y73.755 E99.13852
G1 X199.698 Y72.482 E99.18116
G1 X199.548 Y71.25 E99.22244
G1 X198.398 Y69.047 E99.30509
G1 X196.346 Y67.632 E99.38799
G1 X193.88 Y67.332 E99.47062
G1 X191.552 Y68.21 E99.55337
G1 X189.893 Y70.078 E99.63647
G1 X189.293 Y72.498 E99.71939
G1 X189.889 Y74.915 E99.80219
G1 X191.544 Y76.786 E99.88527
G1 F2700 E94.88527
G0 F6000 X199.543 Y86.946
G0 X199.541 Y86.784
G1 F2700 E99.88527
G1 F1200 X201.864 Y87.666 E99.96792
G1 X204.348 Y87.366 E100.05114
G1 X206.4 Y85.949 E100.13408
G1 X207.545 Y83.759 E100.21627
G1 X207.698 Y82.496 E100.25859
G1 X207.549 Y81.24 E100.30065
G1 X206.4 Y79.051 E100.38288
G1 X204.345 Y77.633 E100.46592
G1 X201.864 Y77.334 E100.54904
G1 X199.543 Y78.214 E100.6316
G1 X197.889 Y80.085 E100.71466
G1 X197.292 Y82.5 E100.7974
G1 X197.889 Y84.915 E100.88014
G1 X199.541 Y86.784 E100.9631
G1 F2700 E95.9631
G0 F6000 X199.543 Y86.946
G0 X191.544 Y96.786
G1 F2700 E100.9631
G1 F1200 X193.876 Y97.669 E101.04604
G1 X196.349 Y97.367 E101.1289
G1 X198.398 Y95.952 E101.21173
G1 X199.547 Y93.755 E101.29419
G1 X199.698 Y92.497 E101.33633
G1 X199.541 Y91.227 E101.37889
G1 X198.399 Y89.048 E101.46072
G1 X196.349 Y87.633 E101.54356
