;FLAVOR:Marlin
;TIME:20594
;Filament used: 15.1805m
;Layer height: 0.2
;MINX:6.5
;MINY:18.5
;MINZ:0.2
;MAXX:228.5
;MAXY:216.5
;MAXZ:7
;TARGET_MACHINE.NAME:Creality Ender-3
;Generated with Cura_SteamEngine 5.6.0
M140 S50
M105
M190 S50
M104 S200
M105
M109 S200
M82 ;absolute extrusion mode
; Ender 3 Custom Start G-code
G92 E0 ; Reset Extruder
G28 ; Home all axes
G1 Z2.0 F3000 ; Move Z Axis up little to prevent scratching of Heat Bed
G1 X0.1 Y20 Z0.3 F5000.0 ; Move to start position
G1 X0.1 Y200.0 Z0.3 F1500.0 E15 ; Draw the first line
G1 X0.4 Y200.0 Z0.3 F5000.0 ; Move to side a little
G1 X0.4 Y20 Z0.3 F1500.0 E30 ; Draw the second line
G92 E0 ; Reset Extruder
G1 Z2.0 F3000 ; Move Z Axis up little to prevent scratching of Heat Bed
G1 X5 Y20 Z0.3 F5000.0 ; Move over to prevent blob squish
G92 E0
G92 E0
G1 F2700 E-5
;LAYER_COUNT:35
;LAYER:0
M107
G0 F6000 X14.113 Y22.198 Z0.2
;TYPE:SKIRT
G1 F2700 E0
G1 F1200 X15.565 Y21.23 E0.05804
G1 X16.195 Y20.823 E0.08299
G1 X17.037 Y20.334 E0.11537
G1 X17.853 Y19.948 E0.1454
G1 X18.837 Y19.586 E0.18027
G1 X19.793 Y19.332 E0.21317
G1 X20.608 Y19.159 E0.24088
G1 X22.415 Y18.8 E0.30216
G1 X23.138 Y18.672 E0.32658
G1 X24.033 Y18.554 E0.3566
G1 X24.875 Y18.51 E0.38465
G1 X25.682 Y18.5 E0.41149
G1 X209.464 Y18.501 E6.5241
G1 X210.209 Y18.514 E6.54889
G1 X211.176 Y18.574 E6.58111
G1 X211.964 Y18.688 E6.60759
G1 X212.766 Y18.835 E6.63471
G1 X214.49 Y19.179 E6.69318
G1 X215.226 Y19.338 E6.71823
G1 X216.099 Y19.568 E6.74825
G1 X217.082 Y19.921 E6.78299
G1 X217.967 Y20.335 E6.81549
G1 X218.842 Y20.845 E6.84917
G1 X219.468 Y21.25 E6.87397
G1 X220.866 Y22.184 E6.92989
G1 X221.574 Y22.672 E6.95849
G1 X222.348 Y23.263 E6.99088
G1 X223.068 Y23.92 E7.0233
G1 X223.727 Y24.64 E7.05576
G1 X224.339 Y25.443 E7.08934
G1 X224.784 Y26.087 E7.11538
G1 X225.77 Y27.565 E7.17447
G1 X226.177 Y28.195 E7.19942
G1 X226.666 Y29.037 E7.23181
G1 X227.052 Y29.853 E7.26183
G1 X227.414 Y30.837 E7.2967
G1 X227.668 Y31.793 E7.3296
G1 X227.84 Y32.604 E7.35718
G1 X228.191 Y34.356 E7.4166
G1 X228.313 Y35.025 E7.43922
G1 X228.445 Y36.022 E7.47267
G1 X228.489 Y36.84 E7.49992
G1 X228.5 Y37.682 E7.52793
G1 X228.499 Y197.464 E12.8423
G1 X228.486 Y198.209 E12.86708
G1 X228.426 Y199.176 E12.8993
G1 X228.312 Y199.964 E12.92579
G1 X228.165 Y200.766 E12.9529
G1 X227.821 Y202.49 E13.01138
G1 X227.662 Y203.226 E13.03642
G1 X227.432 Y204.099 E13.06645
G1 X227.079 Y205.082 E13.10119
G1 X226.665 Y205.967 E13.13368
G1 X226.161 Y206.834 E13.16704
G1 X225.837 Y207.337 E13.18694
G1 X224.814 Y208.869 E13.24821
G1 X224.328 Y209.574 E13.27669
G1 X223.737 Y210.348 E13.30908
G1 X223.08 Y211.068 E13.3415
G1 X222.36 Y211.727 E13.37396
G1 X221.557 Y212.339 E13.40754
G1 X220.913 Y212.784 E13.43358
G1 X219.435 Y213.77 E13.49267
G1 X218.805 Y214.177 E13.51762
G1 X217.963 Y214.666 E13.55
G1 X217.147 Y215.052 E13.58003
G1 X216.163 Y215.414 E13.6149
G1 X215.207 Y215.668 E13.6478
G1 X214.396 Y215.84 E13.67537
G1 X212.588 Y216.2 E13.73669
G1 X211.857 Y216.329 E13.76137
G1 X210.897 Y216.453 E13.79357
G1 X210.125 Y216.49 E13.81928
G1 X209.318 Y216.5 E13.84612
G1 X25.535 Y216.499 E19.95877
G1 X24.79 Y216.486 E19.98355
G1 X23.823 Y216.426 E20.01577
G1 X23.035 Y216.312 E20.04226
G1 X22.233 Y216.165 E20.06937
G1 X20.502 Y215.82 E20.12808
G1 X19.765 Y215.66 E20.15316
G1 X18.858 Y215.419 E20.18438
G1 X17.909 Y215.076 E20.21794
G1 X17.025 Y214.662 E20.25041
G1 X16.149 Y214.152 E20.28412
G1 X15.507 Y213.735 E20.30958
G1 X14.141 Y212.823 E20.36421
G1 X13.448 Y212.346 E20.39219
G1 X12.659 Y211.745 E20.42518
G1 X11.94 Y211.089 E20.45755
G1 X11.279 Y210.369 E20.49006
G1 X10.649 Y209.543 E20.52461
G1 X10.285 Y209.017 E20.54589
G1 X8.84 Y206.836 E20.63291
G1 X8.381 Y206.058 E20.66295
G1 X7.934 Y205.113 E20.69772
G1 X7.598 Y204.197 E20.73017
G1 X7.329 Y203.195 E20.76468
G1 X7.199 Y202.59 E20.78526
G1 X6.809 Y200.643 E20.8513
G1 X6.687 Y199.973 E20.87395
G1 X6.555 Y198.976 E20.9074
G1 X6.511 Y198.161 E20.93455
G1 X6.5 Y197.319 E20.96256
G1 X6.501 Y37.536 E26.27696
G1 X6.514 Y36.791 E26.30174
G1 X6.574 Y35.824 E26.33397
G1 X6.688 Y35.036 E26.36045
G1 X6.835 Y34.234 E26.38757
G1 X7.179 Y32.51 E26.44604
G1 X7.338 Y31.774 E26.47108
G1 X7.568 Y30.901 E26.50111
G1 X7.921 Y29.918 E26.53585
G1 X8.335 Y29.033 E26.56835
G1 X8.845 Y28.158 E26.60203
G1 X9.25 Y27.532 E26.62683
G1 X10.184 Y26.134 E26.68275
G1 X10.672 Y25.426 E26.71135
G1 X11.263 Y24.652 E26.74374
G1 X11.92 Y23.932 E26.77616
G1 X12.64 Y23.273 E26.80862
G1 X13.442 Y22.662 E26.84216
G1 X14.113 Y22.198 E26.86929
G0 F6000 X14.335 Y22.531
G1 F1200 X15.782 Y21.566 E26.92714
G1 X16.397 Y21.169 E26.95149
G1 X17.208 Y20.696 E26.98271
G1 X18.024 Y20.31 E27.01274
G1 X18.94 Y19.973 E27.0452
G1 X19.896 Y19.719 E27.0781
G1 X20.686 Y19.551 E27.10496
G1 X22.485 Y19.194 E27.16596
G1 X23.19 Y19.069 E27.18978
G1 X24.085 Y18.951 E27.2198
G1 X24.88 Y18.91 E27.24628
G1 X25.682 Y18.9 E27.27296
G1 X209.457 Y18.901 E33.38534
G1 X210.185 Y18.913 E33.40955
G1 X211.119 Y18.97 E33.44068
G1 X211.892 Y19.081 E33.46665
G1 X212.688 Y19.227 E33.49357
G1 X214.406 Y19.57 E33.55184
G1 X215.124 Y19.725 E33.57627
G1 X215.997 Y19.955 E33.60629
G1 X216.913 Y20.284 E33.63867
G1 X217.766 Y20.681 E33.66996
G1 X218.625 Y21.181 E33.70302
G1 X219.246 Y21.583 E33.72762
G1 X220.639 Y22.513 E33.78333
G1 X221.332 Y22.99 E33.81131
G1 X222.079 Y23.559 E33.84254
G1 X222.773 Y24.191 E33.87376
G1 X223.409 Y24.883 E33.90502
G1 X224.01 Y25.67 E33.93796
G1 X224.451 Y26.309 E33.96378
G1 X225.434 Y27.782 E34.02268
G1 X225.831 Y28.397 E34.04703
G1 X226.304 Y29.208 E34.07825
G1 X226.69 Y30.024 E34.10828
G1 X227.027 Y30.94 E34.14074
G1 X227.281 Y31.896 E34.17364
G1 X227.448 Y32.682 E34.20037
G1 X227.797 Y34.428 E34.25959
G1 X227.919 Y35.097 E34.28221
G1 X228.046 Y36.043 E34.31395
G1 X228.089 Y36.845 E34.34066
G1 X228.1 Y37.682 E34.36851
G1 X228.099 Y197.457 E39.68264
G1 X228.087 Y198.185 E39.70686
G1 X228.03 Y199.119 E39.73798
G1 X227.919 Y199.892 E39.76396
G1 X227.773 Y200.688 E39.79087
G1 X227.43 Y202.406 E39.84914
G1 X227.275 Y203.124 E39.87357
G1 X227.045 Y203.997 E39.9036
G1 X226.716 Y204.913 E39.93597
G1 X226.319 Y205.766 E39.96727
G1 X225.825 Y206.617 E39.99999
G1 X225.504 Y207.115 E40.0197
G1 X224.485 Y208.642 E40.08076
G1 X224.01 Y209.332 E40.10862
G1 X223.441 Y210.079 E40.13985
G1 X222.809 Y210.773 E40.17107
G1 X222.117 Y211.409 E40.20233
G1 X221.33 Y212.01 E40.23527
G1 X220.691 Y212.451 E40.26109
G1 X219.218 Y213.434 E40.31999
G1 X218.603 Y213.831 E40.34434
G1 X217.792 Y214.304 E40.37556
G1 X216.976 Y214.69 E40.40559
G1 X216.06 Y215.027 E40.43805
G1 X215.104 Y215.281 E40.47095
G1 X214.318 Y215.448 E40.49767
G1 X212.518 Y215.806 E40.55872
G1 X211.805 Y215.932 E40.5828
G1 X210.877 Y216.053 E40.61392
G1 X210.12 Y216.09 E40.63913
G1 X209.318 Y216.1 E40.66581
G1 X25.542 Y216.099 E46.77822
G1 X24.814 Y216.087 E46.80244
G1 X23.88 Y216.03 E46.83356
G1 X23.107 Y215.919 E46.85954
G1 X22.311 Y215.773 E46.88645
G1 X20.587 Y215.429 E46.94492
G1 X19.867 Y215.273 E46.96943
G1 X18.994 Y215.043 E46.99945
G1 X18.078 Y214.713 E47.03184
G1 X17.226 Y214.316 E47.0631
G1 X16.367 Y213.816 E47.09616
G1 X15.729 Y213.402 E47.12145
G1 X14.368 Y212.493 E47.17589
G1 X13.69 Y212.027 E47.20325
G1 X12.928 Y211.449 E47.23506
G1 X12.234 Y210.818 E47.26626
G1 X11.597 Y210.126 E47.29754
G1 X10.978 Y209.316 E47.33145
G1 X10.618 Y208.795 E47.35251
G1 X9.576 Y207.234 E47.41494
G1 X9.185 Y206.633 E47.43878
G1 X8.726 Y205.855 E47.46883
G1 X8.309 Y204.975 E47.50122
G1 X7.984 Y204.093 E47.53248
G1 X7.72 Y203.111 E47.5663
G1 X7.591 Y202.512 E47.58668
G1 X7.203 Y200.571 E47.65252
G1 X7.081 Y199.901 E47.67517
G1 X6.954 Y198.955 E47.70691
G1 X6.911 Y198.156 E47.73353
G1 X6.9 Y197.319 E47.76137
G1 X6.901 Y37.543 E53.07554
G1 X6.913 Y36.815 E53.09976
G1 X6.97 Y35.881 E53.13088
G1 X7.081 Y35.108 E53.15685
G1 X7.227 Y34.312 E53.18377
G1 X7.57 Y32.594 E53.24204
G1 X7.725 Y31.876 E53.26647
G1 X7.955 Y31.003 E53.2965
G1 X8.284 Y30.087 E53.32887
G1 X8.681 Y29.234 E53.36016
G1 X9.181 Y28.375 E53.39322
G1 X9.583 Y27.754 E53.41782
G1 X10.513 Y26.361 E53.47353
G1 X10.99 Y25.668 E53.50151
G1 X11.559 Y24.921 E53.53274
G1 X12.191 Y24.227 E53.56396
G1 X12.883 Y23.591 E53.59522
G1 X13.669 Y22.991 E53.62811
G1 X14.335 Y22.531 E53.65503
G0 F6000 X14.557 Y22.864
G1 F1200 X15.999 Y21.902 E53.71269
G1 X16.599 Y21.514 E53.73645
G1 X17.379 Y21.058 E53.7665
G1 X18.195 Y20.672 E53.79653
G1 X19.043 Y20.36 E53.82658
G1 X19.999 Y20.106 E53.85948
G1 X20.764 Y19.943 E53.8855
G1 X22.555 Y19.588 E53.94622
G1 X23.242 Y19.466 E53.96943
G1 X24.137 Y19.348 E53.99946
G1 X24.885 Y19.31 E54.02437
G1 X25.682 Y19.3 E54.05088
G1 X209.451 Y19.301 E60.16306
G1 X210.161 Y19.312 E60.18668
G1 X211.063 Y19.366 E60.21673
G1 X211.82 Y19.474 E60.24216
G1 X212.61 Y19.619 E60.26888
G1 X214.322 Y19.961 E60.32695
G1 X215.022 Y20.112 E60.35076
G1 X215.895 Y20.342 E60.38079
G1 X216.745 Y20.647 E60.41083
G1 X217.565 Y21.027 E60.44089
G1 X218.408 Y21.517 E60.47332
G1 X219.024 Y21.916 E60.49773
G1 X220.412 Y22.842 E60.55322
G1 X221.09 Y23.309 E60.5806
G1 X221.81 Y23.855 E60.61066
G1 X222.479 Y24.462 E60.6407
G1 X223.091 Y25.126 E60.67074
G1 X223.681 Y25.897 E60.70303
G1 X224.118 Y26.531 E60.72864
G1 X225.098 Y27.999 E60.78735
G1 X225.486 Y28.599 E60.81111
G1 X225.942 Y29.379 E60.84116
G1 X226.328 Y30.195 E60.87119
G1 X226.64 Y31.043 E60.90124
G1 X226.894 Y31.999 E60.93414
G1 X227.056 Y32.76 E60.96002
G1 X227.403 Y34.5 E61.01903
G1 X227.525 Y35.169 E61.04165
G1 X227.647 Y36.064 E61.07169
G1 X227.689 Y36.85 E61.09787
G1 X227.7 Y37.682 E61.12554
G1 X227.699 Y197.451 E66.43948
G1 X227.688 Y198.161 E66.4631
G1 X227.634 Y199.063 E66.49315
G1 X227.526 Y199.82 E66.51859
G1 X227.381 Y200.61 E66.5453
G1 X227.039 Y202.322 E66.60337
G1 X226.888 Y203.022 E66.62719
G1 X226.658 Y203.895 E66.65721
G1 X226.353 Y204.745 E66.68725
G1 X225.973 Y205.565 E66.71731
G1 X225.489 Y206.4 E66.74941
G1 X225.171 Y206.893 E66.76892
G1 X224.156 Y208.415 E66.82977
G1 X223.691 Y209.09 E66.85703
G1 X223.145 Y209.81 E66.88708
G1 X222.538 Y210.479 E66.91713
G1 X221.874 Y211.091 E66.94716
G1 X221.103 Y211.681 E66.97945
G1 X220.469 Y212.118 E67.00506
G1 X219.001 Y213.098 E67.06377
G1 X218.401 Y213.486 E67.08754
G1 X217.621 Y213.942 E67.11759
G1 X216.805 Y214.328 E67.14761
G1 X215.957 Y214.64 E67.17766
G1 X215.001 Y214.894 E67.21056
G1 X214.24 Y215.056 E67.23644
G1 X212.448 Y215.412 E67.29721
G1 X211.753 Y215.535 E67.32068
G1 X210.857 Y215.653 E67.35074
G1 X210.115 Y215.69 E67.37545
G1 X209.318 Y215.7 E67.40196
G1 X25.548 Y215.699 E73.51418
G1 X24.838 Y215.688 E73.53779
G1 X23.936 Y215.634 E73.56785
G1 X23.179 Y215.526 E73.59328
G1 X22.389 Y215.381 E73.62
G1 X20.672 Y215.038 E73.67823
G1 X19.969 Y214.886 E73.70215
G1 X19.096 Y214.656 E73.73218
G1 X18.246 Y214.35 E73.76223
G1 X17.427 Y213.97 E73.79226
G1 X16.585 Y213.48 E73.82466
G1 X15.951 Y213.069 E73.84979
G1 X14.595 Y212.163 E73.90403
G1 X13.917 Y211.697 E73.93139
G1 X13.197 Y211.153 E73.96141
G1 X12.528 Y210.546 E73.99145
G1 X11.915 Y209.883 E74.02149
G1 X11.307 Y209.089 E74.05475
G1 X10.951 Y208.573 E74.0756
G1 X9.911 Y207.016 E74.13787
G1 X9.53 Y206.43 E74.16112
G1 X9.071 Y205.652 E74.19117
G1 X8.684 Y204.836 E74.2212
G1 X8.37 Y203.989 E74.25125
G1 X8.111 Y203.026 E74.28442
G1 X7.983 Y202.434 E74.30456
G1 X7.597 Y200.499 E74.37019
G1 X7.475 Y199.829 E74.39284
G1 X7.353 Y198.934 E74.42288
G1 X7.311 Y198.151 E74.44896
G1 X7.3 Y197.319 E74.47664
G1 X7.301 Y37.549 E79.79061
G1 X7.312 Y36.839 E79.81423
G1 X7.366 Y35.937 E79.84428
G1 X7.474 Y35.18 E79.86971
G1 X7.619 Y34.39 E79.89643
G1 X7.961 Y32.678 E79.95449
G1 X8.112 Y31.978 E79.97831
G1 X8.342 Y31.105 E80.00834
G1 X8.647 Y30.255 E80.03837
G1 X9.027 Y29.435 E80.06843
G1 X9.517 Y28.592 E80.10087
G1 X9.916 Y27.976 E80.12528
G1 X10.842 Y26.588 E80.18077
G1 X11.309 Y25.91 E80.20815
G1 X11.855 Y25.19 E80.23821
G1 X12.462 Y24.521 E80.26825
G1 X13.126 Y23.909 E80.29829
G1 X13.896 Y23.32 E80.33053
G1 X14.557 Y22.864 E80.35724
G1 F2700 E75.35724
;MESH:Housing_lid_new.obj
G0 F6000 X209.161 Y40.404
;TYPE:WALL-OUTER
G1 F2700 E80.35724
G1 F1200 X210.838 Y40.403 E80.41302
G1 X212.326 Y39.625 E80.46887
G1 X213.275 Y38.25 E80.52443
G1 X213.501 Y36.992 E80.56694
G1 X213.473 Y36.565 E80.58118
G1 X212.886 Y35.007 E80.63655
G1 X211.627 Y33.895 E80.69242
G1 X210.004 Y33.493 E80.74803
G1 X208.373 Y33.894 E80.8039
G1 X207.117 Y35.012 E80.85982
G1 X206.522 Y36.568 E80.91523
G1 X206.721 Y38.234 E80.97104
G1 X207.674 Y39.624 E81.02709
G1 X209.161 Y40.404 E81.08294
G1 F2700 E76.08294
G0 F6000 X209.953 Y205.001
G0 X209.979 Y205.3
G1 F2700 E81.08294
G1 F1200 X25.02 Y205.3 E87.2347
G1 X22.207 Y204.739 E87.3301
G1 X19.841 Y203.159 E87.42473
G1 X18.261 Y200.793 E87.51936
G1 X17.7 Y197.978 E87.61483
G1 X17.7 Y37.021 E92.96828
G1 X18.261 Y34.208 E93.06368
G1 X19.842 Y31.842 E93.15833
G1 X22.208 Y30.261 E93.25297
G1 X25.021 Y29.7 E93.34837
G1 X209.979 Y29.701 E99.5001
G1 X212.792 Y30.261 E99.5955
G1 X215.158 Y31.842 E99.69015
G1 X216.739 Y34.208 E99.78479
G1 X217.3 Y37.021 E99.88019
G1 X217.3 Y197.977 E105.23361
G1 X216.739 Y200.792 E105.32908
G1 X215.158 Y203.158 E105.42373
G1 X212.792 Y204.739 E105.51837
G1 X209.979 Y205.3 E105.61377
G1 F2700 E100.61377
G0 F6000 X209.953 Y205.001
G0 X206.571 Y199.259
G0 X206.722 Y199.241
G1 F2700 E105.61377
G1 F1200 X207.684 Y200.632 E105.67003
G1 X209.156 Y201.405 E105.72533
G1 X210.844 Y201.402 E105.78147
G1 X212.325 Y200.625 E105.83709
G1 X213.276 Y199.245 E105.89284
G1 X213.499 Y197.985 E105.9354
G1 X213.473 Y197.562 E105.94949
G1 X212.89 Y196.018 E106.00438
G1 X211.636 Y194.904 E106.06017
G1 X209.998 Y194.494 E106.11633
G1 X208.372 Y194.895 E106.17203
G1 X207.111 Y196.012 E106.22806
G1 X206.521 Y197.572 E106.28354
G1 X206.722 Y199.241 E106.33945
G1 F2700 E101.33945
G0 F6000 X206.571 Y199.259
G0 X28.401 Y199.334
G0 X28.272 Y199.245
G1 F2700 E106.33945
G1 F1200 X28.5 Y198.008 E106.38128
G1 X28.468 Y197.546 E106.39669
G1 X27.888 Y196.011 E106.45127
G1 X26.63 Y194.896 E106.50718
G1 X24.997 Y194.494 E106.56311
G1 X23.373 Y194.894 E106.61874
G1 X22.11 Y196.017 E106.67495
G1 X21.52 Y197.573 E106.7303
G1 X21.722 Y199.245 E106.78632
G1 X22.675 Y200.624 E106.84207
G1 X24.153 Y201.401 E106.89761
G1 X25.846 Y201.402 E106.95391
G1 X27.324 Y200.619 E107.00955
G1 X28.272 Y199.245 E107.06507
G1 F2700 E102.06507
G0 F6000 X28.401 Y199.334
G0 X60.947 Y191.401
G1 F2700 E107.06507
G1 F1200 X62.366 Y189.348 E107.14807
G1 X62.666 Y186.864 E107.23129
G1 X61.786 Y184.544 E107.31382
G1 X59.919 Y182.892 E107.39674
G1 X57.498 Y182.294 E107.47968
G1 X55.082 Y182.889 E107.56244
G1 X53.217 Y184.539 E107.64526
G1 X52.332 Y186.87 E107.72819
G1 X52.631 Y189.344 E107.81107
G1 X54.053 Y191.401 E107.89424
G1 X56.247 Y192.553 E107.97666
G1 X58.751 Y192.554 E108.05995
G1 X60.947 Y191.401 E108.14244
G1 F2700 E103.14244
G0 F6000 X80.947 Y191.401
G1 F2700 E108.14244
G1 F1200 X82.366 Y189.348 E108.22545
G1 X82.666 Y186.864 E108.30867
G1 X81.786 Y184.544 E108.39119
G1 X79.919 Y182.892 E108.47411
G1 X77.498 Y182.294 E108.55705
G1 X75.081 Y182.89 E108.63985
G1 X73.214 Y184.544 E108.72281
G1 X72.331 Y186.873 E108.80565
G1 X72.634 Y189.348 E108.88859
G1 X74.046 Y191.398 E108.97138
G1 X76.247 Y192.553 E109.05405
G1 X78.751 Y192.554 E109.13734
G1 X80.947 Y191.401 E109.21983
G1 F2700 E104.21983
G0 F6000 X98.82 Y192.687
G0 X98.751 Y192.554
G1 F2700 E109.21983
G1 F1200 X100.959 Y191.39 E109.30285
G1 X102.366 Y189.348 E109.38533
G1 X102.666 Y186.864 E109.46855
G1 X101.786 Y184.544 E109.55107
G1 X99.919 Y182.892 E109.63399
G1 X97.498 Y182.294 E109.71693
G1 X95.081 Y182.89 E109.79973
G1 X93.214 Y184.544 E109.88269
G1 X92.331 Y186.873 E109.96553
G1 X92.634 Y189.348 E110.04847
G1 X94.046 Y191.398 E110.13126
G1 X96.247 Y192.553 E110.21393
G1 X98.751 Y192.554 E110.29722
G1 F2700 E105.29722
G0 F6000 X98.82 Y192.687
G0 X118.82 Y192.687
G0 X118.751 Y192.554
G1 F2700 E110.29722
G1 F1200 X120.947 Y191.401 E110.37971
G1 X122.366 Y189.348 E110.46272
G1 X122.666 Y186.864 E110.54593
G1 X121.786 Y184.544 E110.62846
G1 X119.919 Y182.892 E110.71138
G1 X117.498 Y182.294 E110.79432
G1 X115.081 Y182.89 E110.87712
G1 X113.216 Y184.542 E110.95999
