;FLAVOR:Marlin
;TIME:7811
;Filament used: 5.30159m
;Layer height: 0.2
;MINX:26.5
;MINY:54
;MINZ:0.2
;MAXX:208.5
;MAXY:181
;MAXZ:1
;TARGET_MACHINE.NAME:Creality Ender-3
;Generated with Cura_SteamEngine 5.6.0
M140 S50
M105
M190 S50
M104 S200
M105
M109 S200
M82 ;absolute extrusion mode
; Ender 3 Custom Start G-code
G92 E0 ; Reset Extruder
G28 ; Home all axes
G1 Z2.0 F3000 ; Move Z Axis up little to prevent scratching of Heat Bed
G1 X0.1 Y20 Z0.3 F5000.0 ; Move to start position
G1 X0.1 Y200.0 Z0.3 F1500.0 E15 ; Draw the first line
G1 X0.4 Y200.0 Z0.3 F5000.0 ; Move to side a little
G1 X0.4 Y20 Z0.3 F1500.0 E30 ; Draw the second line
G92 E0 ; Reset Extruder
G1 Z2.0 F3000 ; Move Z Axis up little to prevent scratching of Heat Bed
G1 X5 Y20 Z0.3 F5000.0 ; Move over to prevent blob squish
G92 E0
G92 E0
G1 F2700 E-5
;LAYER_COUNT:5
;LAYER:0
M107
G0 F6000 X32.321 Y55.311 Z0.2
;TYPE:SKIRT
G1 F2700 E0
G1 F1200 X33.199 Y54.89 E0.03239
G1 X34.112 Y54.548 E0.06481
G1 X35.049 Y54.289 E0.09715
G1 X36.016 Y54.111 E0.12985
G1 X37.155 Y54.015 E0.16787
G1 X37.812 Y54 E0.18972
G1 X196.804 Y54 E5.47782
G1 X197.684 Y54.013 E5.50709
G1 X198.656 Y54.072 E5.53948
G1 X199.619 Y54.218 E5.57188
G1 X200.566 Y54.449 E5.6043
G1 X201.454 Y54.749 E5.63547
G1 X202.346 Y55.139 E5.66785
G1 X203.229 Y55.626 E5.70139
G1 X203.98 Y56.128 E5.73144
G1 X204.795 Y56.786 E5.76627
G1 X205.493 Y57.464 E5.79864
G1 X206.129 Y58.201 E5.83102
G1 X206.699 Y58.991 E5.86342
G1 X207.161 Y59.767 E5.89346
G1 X207.615 Y60.709 E5.92824
G1 X207.944 Y61.587 E5.95942
G1 X208.213 Y62.559 E5.99297
G1 X208.39 Y63.525 E6.02563
G1 X208.485 Y64.655 E6.06335
G1 X208.5 Y65.33 E6.0858
G1 X208.499 Y169.4 E9.54718
G1 X208.488 Y170.163 E9.57256
G1 X208.431 Y171.136 E9.60498
G1 X208.286 Y172.099 E9.63737
G1 X208.057 Y173.045 E9.66975
G1 X207.746 Y173.969 E9.70217
G1 X207.354 Y174.86 E9.73455
G1 X206.886 Y175.712 E9.76688
G1 X206.364 Y176.493 E9.79812
G1 X205.731 Y177.278 E9.83166
G1 X205.106 Y177.929 E9.86168
G1 X204.317 Y178.617 E9.8965
G1 X203.557 Y179.167 E9.9277
G1 X202.69 Y179.684 E9.96127
G1 X201.812 Y180.106 E9.99367
G1 X200.901 Y180.448 E10.02604
G1 X199.962 Y180.709 E10.05845
G1 X198.996 Y180.887 E10.09113
G1 X197.845 Y180.985 E10.12955
G1 X197.17 Y181 E10.152
G1 X38.064 Y180.999 E15.44389
G1 X37.331 Y180.988 E15.46827
G1 X36.359 Y180.931 E15.50066
G1 X35.396 Y180.785 E15.53305
G1 X34.45 Y180.556 E15.56542
G1 X33.526 Y180.244 E15.59786
G1 X32.636 Y179.852 E15.63021
G1 X31.813 Y179.401 E15.66142
G1 X30.974 Y178.84 E15.69499
G1 X30.27 Y178.274 E15.72503
G1 X29.517 Y177.549 E15.7598
G1 X28.88 Y176.813 E15.79217
G1 X28.35 Y176.082 E15.82221
G1 X27.814 Y175.185 E15.85696
G1 X27.392 Y174.307 E15.88936
G1 X27.05 Y173.395 E15.92176
G1 X26.79 Y172.457 E15.95413
G1 X26.612 Y171.488 E15.9869
G1 X26.514 Y170.309 E16.02625
G1 X26.5 Y169.658 E16.04791
G1 X26.501 Y65.525 E19.51138
G1 X26.512 Y64.825 E19.53467
G1 X26.57 Y63.852 E19.56709
G1 X26.716 Y62.889 E19.59948
G1 X26.946 Y61.943 E19.63186
G1 X27.259 Y61.02 E19.66428
G1 X27.651 Y60.13 E19.69663
G1 X28.121 Y59.277 E19.72902
G1 X28.664 Y58.469 E19.7614
G1 X29.231 Y57.765 E19.79146
G1 X29.956 Y57.013 E19.82621
G1 X30.692 Y56.376 E19.85858
G1 X31.424 Y55.846 E19.88864
G1 X32.321 Y55.311 E19.92338
G0 F6000 X32.495 Y55.671
G1 F1200 X33.34 Y55.264 E19.95457
G1 X34.219 Y54.933 E19.98581
G1 X35.122 Y54.682 E20.01698
G1 X36.05 Y54.51 E20.04837
G1 X37.189 Y54.414 E20.08639
G1 X37.821 Y54.4 E20.10742
G1 X196.798 Y54.4 E25.39501
G1 X197.66 Y54.412 E25.42369
G1 X198.597 Y54.468 E25.45491
G1 X199.525 Y54.607 E25.48612
G1 X200.438 Y54.828 E25.51736
G1 X201.294 Y55.116 E25.5474
G1 X202.186 Y55.506 E25.57978
G1 X203.007 Y55.959 E25.61097
G1 X203.758 Y56.461 E25.64101
G1 X204.517 Y57.073 E25.67344
G1 X205.191 Y57.726 E25.70465
G1 X205.805 Y58.435 E25.73585
G1 X206.355 Y59.196 E25.76708
G1 X206.817 Y59.972 E25.79712
G1 X207.24 Y60.849 E25.8295
G1 X207.569 Y61.727 E25.86069
G1 X207.82 Y62.632 E25.89192
G1 X207.991 Y63.559 E25.92327
G1 X208.086 Y64.689 E25.96099
G1 X208.1 Y65.33 E25.98232
G1 X208.099 Y169.395 E29.44353
G1 X208.089 Y170.14 E29.46831
G1 X208.035 Y171.077 E29.49953
G1 X207.897 Y172.006 E29.53077
G1 X207.678 Y172.918 E29.56196
G1 X207.38 Y173.808 E29.59318
G1 X207.003 Y174.668 E29.62441
G1 X206.553 Y175.49 E29.65558
G1 X206.031 Y176.271 E29.68682
G1 X205.442 Y177.001 E29.71802
G1 X204.817 Y177.652 E29.74804
G1 X204.082 Y178.293 E29.78047
G1 X203.322 Y178.843 E29.81168
G1 X202.516 Y179.324 E29.8429
G1 X201.671 Y179.732 E29.8741
G1 X200.793 Y180.063 E29.90531
G1 X199.889 Y180.316 E29.93654
G1 X198.962 Y180.488 E29.96789
G1 X197.811 Y180.586 E30.00631
G1 X197.17 Y180.6 E30.02764
G1 X38.07 Y180.599 E35.31933
G1 X37.354 Y180.589 E35.34314
G1 X36.418 Y180.535 E35.37433
G1 X35.489 Y180.396 E35.40557
G1 X34.577 Y180.177 E35.43677
G1 X33.687 Y179.878 E35.46799
G1 X32.828 Y179.501 E35.49919
G1 X32.005 Y179.05 E35.53041
G1 X31.225 Y178.528 E35.56162
G1 X30.521 Y177.962 E35.59167
G1 X29.819 Y177.287 E35.62406
G1 X29.204 Y176.578 E35.65528
G1 X28.674 Y175.847 E35.68531
G1 X28.174 Y175.011 E35.71771
G1 X27.766 Y174.166 E35.74892
G1 X27.435 Y173.288 E35.78012
G1 X27.183 Y172.384 E35.81134
G1 X27.011 Y171.455 E35.84276
G1 X26.913 Y170.276 E35.88211
G1 X26.9 Y169.658 E35.90267
G1 X26.901 Y65.531 E39.36595
G1 X26.911 Y64.848 E39.38867
G1 X26.966 Y63.911 E39.41989
G1 X27.105 Y62.983 E39.4511
G1 X27.325 Y62.071 E39.4823
G1 X27.625 Y61.181 E39.51354
G1 X28.002 Y60.322 E39.54474
G1 X28.453 Y59.5 E39.57592
G1 X28.976 Y58.72 E39.60716
G1 X29.543 Y58.016 E39.63722
G1 X30.218 Y57.315 E39.66959
G1 X30.927 Y56.7 E39.70081
G1 X31.659 Y56.17 E39.73086
G1 X32.495 Y55.671 E39.76325
G0 F6000 X32.669 Y56.031
G1 F1200 X33.482 Y55.638 E39.79328
G1 X34.327 Y55.318 E39.82333
G1 X35.196 Y55.075 E39.85334
G1 X36.084 Y54.909 E39.88339
G1 X37.223 Y54.813 E39.92141
G1 X37.83 Y54.8 E39.9416
G1 X196.793 Y54.8 E45.22873
G1 X197.637 Y54.811 E45.25681
G1 X198.539 Y54.864 E45.28686
G1 X199.432 Y54.996 E45.31688
G1 X200.31 Y55.207 E45.34692
G1 X201.166 Y55.495 E45.37696
G1 X201.993 Y55.857 E45.40698
G1 X202.785 Y56.292 E45.43704
G1 X203.536 Y56.794 E45.46708
G1 X204.239 Y57.361 E45.49712
G1 X204.889 Y57.988 E45.52716
G1 X205.481 Y58.67 E45.5572
G1 X206.011 Y59.401 E45.58723
G1 X206.473 Y60.177 E45.61726
G1 X206.866 Y60.99 E45.6473
G1 X207.184 Y61.835 E45.67733
G1 X207.427 Y62.705 E45.70737
G1 X207.592 Y63.593 E45.73741
G1 X207.687 Y64.723 E45.77513
G1 X207.7 Y65.33 E45.79532
G1 X207.699 Y169.39 E49.25637
G1 X207.69 Y170.117 E49.28055
G1 X207.639 Y171.019 E49.3106
G1 X207.508 Y171.913 E49.34065
G1 X207.299 Y172.791 E49.37067
G1 X207.013 Y173.648 E49.40072
G1 X206.652 Y174.476 E49.43076
G1 X206.22 Y175.268 E49.46077
G1 X205.719 Y176.02 E49.49082
G1 X205.153 Y176.724 E49.52087
G1 X204.528 Y177.375 E49.55088
G1 X203.847 Y177.969 E49.58094
G1 X203.116 Y178.5 E49.61099
G1 X202.342 Y178.964 E49.64101
G1 X201.529 Y179.358 E49.67105
G1 X200.685 Y179.678 E49.70108
G1 X199.815 Y179.923 E49.73114
G1 X198.928 Y180.089 E49.76115
G1 X197.777 Y180.187 E49.79957
G1 X197.17 Y180.2 E49.81977
G1 X38.075 Y180.199 E55.11129
G1 X37.377 Y180.19 E55.13451
G1 X36.476 Y180.139 E55.16452
G1 X35.582 Y180.007 E55.19458
G1 X34.704 Y179.798 E55.2246
G1 X33.847 Y179.511 E55.25466
G1 X33.02 Y179.15 E55.28467
G1 X32.227 Y178.717 E55.31472
G1 X31.476 Y178.216 E55.34475
G1 X30.772 Y177.65 E55.37479
G1 X30.121 Y177.024 E55.40483
G1 X29.528 Y176.343 E55.43486
G1 X28.998 Y175.612 E55.46489
G1 X28.534 Y174.837 E55.49494
G1 X28.14 Y174.024 E55.52499
G1 X27.82 Y173.18 E55.55501
G1 X27.576 Y172.31 E55.58506
G1 X27.41 Y171.422 E55.61511
G1 X27.313 Y170.267 E55.65366
G1 X27.3 Y169.658 E55.67392
G1 X27.301 Y65.536 E59.13703
G1 X27.31 Y64.871 E59.15915
G1 X27.362 Y63.969 E59.1892
G1 X27.494 Y63.076 E59.21922
G1 X27.704 Y62.198 E59.24925
G1 X27.991 Y61.341 E59.27931
G1 X28.353 Y60.514 E59.30934
G1 X28.786 Y59.722 E59.33936
G1 X29.288 Y58.971 E59.3694
G1 X29.855 Y58.267 E59.39947
G1 X30.481 Y57.617 E59.42948
G1 X31.162 Y57.024 E59.45952
G1 X31.894 Y56.494 E59.48957
G1 X32.669 Y56.031 E59.5196
G1 F2700 E54.5196
;MESH:driver_plate_bottom_v1.obj
G0 F6000 X198.153 Y64.347
G0 X198.153 Y170.653
G0 X197.3 Y170.665
G0 X197.3 Y169.8
;TYPE:WALL-OUTER
G1 F2700 E59.5196
G1 F1200 X37.7 Y169.8 E64.82792
G1 X37.701 Y65.201 E68.30689
G1 X197.3 Y65.2 E73.61518
G1 X197.3 Y169.8 E77.09419
G1 F2700 E72.09419
G0 F6000 X49.527 Y166.794
G1 F2700 E77.09419
G1 F1200 X50.121 Y165.662 E77.13671
G1 X50.199 Y164.982 E77.15947
G1 X50.12 Y164.338 E77.18105
G1 X49.529 Y163.209 E77.22344
G1 X48.458 Y162.469 E77.26674
G1 X47.174 Y162.313 E77.30976
G1 X45.965 Y162.773 E77.35278
G1 X45.106 Y163.742 E77.39585
G1 X44.792 Y165 E77.43897
G1 X45.103 Y166.256 E77.48201
G1 X45.962 Y167.228 E77.52515
G1 X47.165 Y167.686 E77.56797
G1 X48.459 Y167.531 E77.61131
G1 X49.527 Y166.794 E77.65447
G1 F2700 E72.65447
G0 F6000 X59.527 Y166.794
G1 F2700 E77.65447
G1 F1200 X60.121 Y165.662 E77.69699
G1 X60.199 Y164.982 E77.71976
G1 X60.12 Y164.338 E77.74134
G1 X59.529 Y163.209 E77.78372
G1 X58.453 Y162.468 E77.82718
G1 X57.174 Y162.313 E77.87003
G1 X55.959 Y162.776 E77.91327
G1 X55.103 Y163.743 E77.95623
G1 X54.794 Y164.999 E77.99925
G1 X55.104 Y166.258 E78.04237
G1 X55.962 Y167.228 E78.08544
G1 X57.165 Y167.686 E78.12826
G1 X58.459 Y167.531 E78.1716
G1 X59.527 Y166.794 E78.21476
G1 F2700 E73.21476
G0 F6000 X98.407 Y167.732
G0 X98.459 Y167.531
G1 F2700 E78.21476
G1 F1200 X99.527 Y166.794 E78.25792
G1 X100.121 Y165.662 E78.30044
G1 X100.199 Y164.982 E78.32321
G1 X100.12 Y164.338 E78.34479
G1 X99.529 Y163.21 E78.38714
G1 X98.457 Y162.469 E78.43048
G1 X97.178 Y162.314 E78.47333
G1 X95.959 Y162.776 E78.51669
G1 X95.103 Y163.743 E78.55965
G1 X94.794 Y164.999 E78.60267
G1 X95.104 Y166.258 E78.64579
G1 X95.962 Y167.228 E78.68886
G1 X97.165 Y167.686 E78.73168
G1 X98.459 Y167.531 E78.77502
G1 F2700 E73.77502
G0 F6000 X98.407 Y167.732
G0 X88.407 Y167.732
G0 X88.459 Y167.531
G1 F2700 E78.77502
G1 F1200 X89.527 Y166.794 E78.81818
G1 X90.121 Y165.662 E78.8607
G1 X90.199 Y164.982 E78.88347
G1 X90.12 Y164.338 E78.90505
G1 X89.529 Y163.209 E78.94743
G1 X88.461 Y162.469 E78.99065
G1 X87.172 Y162.315 E79.03382
G1 X85.959 Y162.776 E79.07698
G1 X85.103 Y163.743 E79.11994
G1 X84.794 Y164.999 E79.16296
G1 X85.104 Y166.258 E79.20608
G1 X85.962 Y167.228 E79.24916
G1 X87.165 Y167.686 E79.29197
G1 X88.459 Y167.531 E79.33532
G1 F2700 E74.33532
G0 F6000 X88.407 Y167.732
G0 X78.407 Y167.732
G0 X78.459 Y167.531
G1 F2700 E79.33532
G1 F1200 X79.527 Y166.794 E79.37847
G1 X80.121 Y165.662 E79.42099
G1 X80.199 Y164.982 E79.44376
G1 X80.12 Y164.338 E79.46534
G1 X79.529 Y163.209 E79.50772
G1 X78.457 Y162.469 E79.55105
G1 X77.169 Y162.315 E79.59419
G1 X75.961 Y162.773 E79.63716
G1 X75.103 Y163.743 E79.68023
G1 X74.794 Y164.999 E79.72325
G1 X75.104 Y166.258 E79.76638
G1 X75.962 Y167.228 E79.80945
G1 X77.165 Y167.686 E79.85227
G1 X78.459 Y167.531 E79.89561
G1 F2700 E74.89561
G0 F6000 X78.407 Y167.732
G0 X69.527 Y166.794
G1 F2700 E79.89561
G1 F1200 X70.121 Y165.662 E79.93813
G1 X70.199 Y164.982 E79.9609
G1 X70.12 Y164.338 E79.98248
G1 X69.529 Y163.21 E80.02483
G1 X68.462 Y162.47 E80.06802
G1 X67.163 Y162.316 E80.11153
G1 X65.965 Y162.772 E80.15416
G1 X65.103 Y163.743 E80.19735
G1 X64.794 Y164.999 E80.24037
G1 X65.104 Y166.258 E80.28349
G1 X65.962 Y167.228 E80.32657
G1 X67.165 Y167.686 E80.36938
G1 X68.459 Y167.531 E80.41273
G1 X69.527 Y166.794 E80.45588
G1 F2700 E75.45588
G0 F6000 X69.87 Y157.727
G1 F2700 E80.45588
G1 F1200 X70.482 Y156.963 E80.48844
G1 X70.699 Y156.02 E80.52063
G1 X70.7 Y151.984 E80.65486
G1 X70.487 Y151.045 E80.68689
G1 X69.878 Y150.279 E80.71944
G1 X68.985 Y149.849 E80.7524
G1 X68.002 Y149.852 E80.7851
G1 X67.12 Y150.28 E80.8177
G1 X66.515 Y151.04 E80.85001
G1 X66.3 Y151.984 E80.88221
G1 X66.301 Y156.02 E81.01645
G1 X66.521 Y156.961 E81.04859
G1 X67.127 Y157.726 E81.08105
G1 X68.003 Y158.149 E81.11341
G1 X69.001 Y158.147 E81.1466
G1 X69.87 Y157.727 E81.1787
G1 F2700 E76.1787
G0 F6000 X110.435 Y80.301
G0 X110.272 Y80.169
G1 F2700 E81.1787
G1 F1200 X112.737 Y79.869 E81.2613
G1 X114.798 Y78.453 E81.34446
G1 X115.948 Y76.261 E81.42679
G1 X116.099 Y75.01 E81.46871
G1 X115.947 Y73.736 E81.51138
G1 X114.798 Y71.547 E81.59361
G1 X112.746 Y70.132 E81.67651
G1 X110.28 Y69.832 E81.75913
G1 X107.952 Y70.71 E81.84189
G1 X106.293 Y72.578 E81.92498
G1 X105.693 Y74.997 E82.00788
G1 X106.29 Y77.418 E82.09081
G1 X107.941 Y79.284 E82.17368
G1 X110.272 Y80.169 E82.25661
G1 F2700 E77.25661
G0 F6000 X110.435 Y80.301
G0 X148.172 Y71.328
G0 X148.225 Y71.187
G1 F2700 E82.25661
G1 F1200 X149.277 Y71.064 E82.29184
G1 X150.156 Y70.457 E82.32737
G1 X150.635 Y69.533 E82.36198
G1 X150.698 Y69.024 E82.37904
G1 X150.636 Y68.457 E82.39801
G1 X150.153 Y67.538 E82.43254
G1 X149.282 Y66.937 E82.46774
G1 X148.242 Y66.811 E82.50258
G1 X147.247 Y67.183 E82.53791
G1 X146.545 Y67.977 E82.57316
G1 X146.296 Y68.989 E82.60783
G1 X146.544 Y70.023 E82.64319
G1 X147.246 Y70.815 E82.67839
G1 X148.225 Y71.187 E82.71323
G1 F2700 E77.71323
G0 F6000 X148.172 Y71.328
G0 X187.941 Y79.284
G1 F2700 E82.71323
G1 F1200 X190.272 Y80.169 E82.79616
G1 X192.746 Y79.868 E82.87905
G1 X194.798 Y78.453 E82.96195
G1 X195.949 Y76.26 E83.04433
G1 X196.1 Y75 E83.08653
G1 X195.948 Y73.739 E83.12878
G1 X194.798 Y71.547 E83.21111
G1 X192.746 Y70.132 E83.29401
G1 X190.28 Y69.832 E83.37664
G1 X187.952 Y70.71 E83.45939
G1 X186.293 Y72.578 E83.54249
G1 X185.693 Y74.997 E83.62538
G1 X186.29 Y77.418 E83.70832
G1 X187.941 Y79.284 E83.79118
G1 F2700 E78.79118
G0 F6000 X181.144 Y89.286
G1 F2700 E83.79118
G1 F1200 X183.472 Y90.169 E83.874
G1 X185.946 Y89.868 E83.95689
G1 X187.998 Y88.453 E84.03979
G1 X189.149 Y86.26 E84.12217
G1 X189.3 Y85 E84.16438
G1 X189.149 Y83.74 E84.20658
G1 X187.999 Y81.548 E84.28891
G1 X185.946 Y80.132 E84.37186
G1 X183.483 Y79.832 E84.45439
G1 X181.143 Y80.714 E84.53756
G1 X179.492 Y82.582 E84.62048
G1 X178.893 Y84.998 E84.70327
G1 X179.489 Y87.415 E84.78607
G1 X181.144 Y89.286 E84.86915
G1 F2700 E79.86915
G0 F6000 X187.941 Y99.284
G1 F2700 E84.86915
G1 F1200 X190.272 Y100.169 E84.95208
G1 X192.746 Y99.868 E85.03497
G1 X194.798 Y98.453 E85.11787
G1 X195.949 Y96.26 E85.20025
G1 X196.1 Y95 E85.24246
G1 X195.948 Y93.739 E85.2847
G1 X194.798 Y91.547 E85.36703
G1 X192.746 Y90.131 E85.44995
G1 X190.272 Y89.831 E85.53284
G1 X187.943 Y90.714 E85.61569
G1 X186.29 Y92.582 E85.69865
G1 X185.692 Y95 E85.78149
G1 X186.29 Y97.418 E85.86434
G1 X187.941 Y99.284 E85.94721
G1 F2700 E80.94721
G0 F6000 X181.144 Y109.286
G1 F2700 E85.94721
G1 F1200 X183.472 Y110.169 E86.03002
G1 X185.946 Y109.868 E86.11291
G1 X187.998 Y108.453 E86.19582
G1 X189.149 Y106.26 E86.27819
G1 X189.3 Y105 E86.3204
G1 X189.149 Y103.74 E86.36261
G1 X187.999 Y101.548 E86.44494
G1 X185.946 Y100.132 E86.52789
G1 X183.483 Y99.832 E86.61041
G1 X181.144 Y100.714 E86.69356
G1 X179.495 Y102.575 E86.77626
G1 X178.894 Y105.001 E86.85938
G1 X179.489 Y107.415 E86.94208
G1 X181.144 Y109.286 E87.02516
G1 F2700 E82.02516
G0 F6000 X187.941 Y119.284
G1 F2700 E87.02516
G1 F1200 X190.272 Y120.169 E87.10809
G1 X192.746 Y119.868 E87.19098
G1 X194.798 Y118.453 E87.27388
G1 X195.949 Y116.26 E87.35626
G1 X196.1 Y115 E87.39847
G1 X195.948 Y113.739 E87.44071
G1 X194.798 Y111.547 E87.52304
G1 X192.746 Y110.131 E87.60596
G1 X190.272 Y109.831 E87.68885
G1 X187.943 Y110.714 E87.7717
G1 X186.29 Y112.582 E87.85466
G1 X185.692 Y115 E87.9375
G1 X186.29 Y117.418 E88.02035
G1 X187.941 Y119.284 E88.10322
G1 F2700 E83.10322
G0 F6000 X181.144 Y129.286
G1 F2700 E88.10322
G1 F1200 X183.472 Y130.169 E88.18603
G1 X185.946 Y129.868 E88.26892
G1 X187.998 Y128.453 E88.35183
G1 X189.149 Y126.26 E88.4342
G1 X189.3 Y125 E88.47641
G1 X189.149 Y123.74 E88.51862
G1 X187.999 Y121.548 E88.60095
G1 X185.946 Y120.132 E88.6839
G1 X183.483 Y119.832 E88.76642
G1 X181.144 Y120.714 E88.84957
G1 X179.494 Y122.577 E88.93234
G1 X178.893 Y124.995 E89.01521
G1 X179.491 Y127.417 E89.09818
G1 X181.144 Y129.286 E89.18117
G1 F2700 E84.18117
G0 F6000 X187.941 Y139.284
G1 F2700 E89.18117
G1 F1200 X190.272 Y140.169 E89.2641
G1 X192.746 Y139.868 E89.34699
