;FLAVOR:Marlin
;TIME:31366
;Filament used: 19.5144m
;Layer height: 0.2
;MINX:6.5
;MINY:51.804
;MINZ:0.2
;MAXX:228.5
;MAXY:180
;MAXZ:40
;TARGET_MACHINE.NAME:Creality Ender-3
;Generated with Cura_SteamEngine 5.6.0
M140 S50
M105
M190 S50
M104 S200
M105
M109 S200
M82 ;absolute extrusion mode
; Ender 3 Custom Start G-code
G92 E0 ; Reset Extruder
G28 ; Home all axes
G1 Z2.0 F3000 ; Move Z Axis up little to prevent scratching of Heat Bed
G1 X0.1 Y20 Z0.3 F5000.0 ; Move to start position
G1 X0.1 Y200.0 Z0.3 F1500.0 E15 ; Draw the first line
G1 X0.4 Y200.0 Z0.3 F5000.0 ; Move to side a little
G1 X0.4 Y20 Z0.3 F1500.0 E30 ; Draw the second line
G92 E0 ; Reset Extruder
G1 Z2.0 F3000 ; Move Z Axis up little to prevent scratching of Heat Bed
G1 X5 Y20 Z0.3 F5000.0 ; Move over to prevent blob squish
G92 E0
G92 E0
G1 F2700 E-5
;LAYER_COUNT:200
;LAYER:0
M107
G0 F6000 X14.597 Y55.4 Z0.2
;TYPE:SKIRT
G1 F2700 E0
G1 F1200 X17.646 Y54.563 E0.10516
G1 X20.008 Y53.837 E0.18735
G1 X23.882 Y52.494 E0.32372
G1 X25.198 Y52.128 E0.36915
G1 X25.553 Y52.052 E0.38123
G1 X26.444 Y51.903 E0.41128
G1 X27.593 Y51.821 E0.44959
G1 X28.678 Y51.804 E0.48568
G1 X29.31 Y51.811 E0.5067
G1 X30.299 Y51.867 E0.53965
G1 X31.193 Y51.996 E0.56969
G1 X31.784 Y52.121 E0.58978
G1 X33.763 Y52.599 E0.6575
G1 X36.294 Y53.16 E0.74372
G1 X38.754 Y53.634 E0.82705
G1 X41.224 Y54.035 E0.91027
G1 X43.684 Y54.365 E0.99283
G1 X46.206 Y54.63 E1.07717
G1 X48.712 Y54.823 E1.16077
G1 X51.245 Y54.946 E1.24512
G1 X54.361 Y55 E1.34877
G1 X216.951 Y55.001 E6.75653
G1 X217.684 Y55.013 E6.78092
G1 X218.656 Y55.072 E6.81331
G1 X219.619 Y55.218 E6.8457
G1 X220.566 Y55.449 E6.87812
G1 X221.454 Y55.749 E6.9093
G1 X222.346 Y56.139 E6.94168
G1 X223.229 Y56.626 E6.97522
G1 X223.98 Y57.128 E7.00526
G1 X224.795 Y57.786 E7.0401
G1 X225.493 Y58.464 E7.07247
G1 X226.129 Y59.201 E7.10484
G1 X226.699 Y59.991 E7.13724
G1 X227.161 Y60.767 E7.16728
G1 X227.615 Y61.709 E7.20206
G1 X227.944 Y62.587 E7.23325
G1 X228.213 Y63.559 E7.26679
G1 X228.39 Y64.525 E7.29946
G1 X228.485 Y65.655 E7.33717
G1 X228.5 Y66.33 E7.35963
G1 X228.499 Y160.964 E10.50717
G1 X228.486 Y161.709 E10.53195
G1 X228.426 Y162.676 E10.56417
G1 X228.312 Y163.464 E10.59066
G1 X228.165 Y164.266 E10.61778
G1 X227.821 Y165.99 E10.67625
G1 X227.662 Y166.726 E10.70129
G1 X227.432 Y167.599 E10.73132
G1 X227.079 Y168.582 E10.76606
G1 X226.665 Y169.467 E10.79855
G1 X226.155 Y170.342 E10.83224
G1 X225.75 Y170.968 E10.85704
G1 X224.816 Y172.366 E10.91296
G1 X224.328 Y173.074 E10.94156
G1 X223.737 Y173.848 E10.97395
G1 X223.08 Y174.568 E11.00637
G1 X222.36 Y175.227 E11.03883
G1 X221.557 Y175.839 E11.07241
G1 X220.913 Y176.284 E11.09845
G1 X219.435 Y177.27 E11.15754
G1 X218.805 Y177.677 E11.18249
G1 X217.963 Y178.166 E11.21487
G1 X217.147 Y178.552 E11.24489
G1 X216.163 Y178.914 E11.27977
G1 X215.207 Y179.168 E11.31267
G1 X214.393 Y179.341 E11.34034
G1 X212.815 Y179.657 E11.39387
G1 X211.867 Y179.827 E11.4259
G1 X210.971 Y179.946 E11.45597
G1 X210.125 Y179.99 E11.48414
G1 X209.318 Y180 E11.51099
G1 X25.546 Y179.999 E17.62327
G1 X24.828 Y179.987 E17.64715
G1 X23.855 Y179.928 E17.67957
G1 X22.935 Y179.79 E17.71052
G1 X22.358 Y179.662 E17.73017
G1 X21.298 Y179.395 E17.76653
G1 X18.933 Y178.762 E17.84796
G1 X18.225 Y178.56 E17.87245
G1 X17.285 Y178.244 E17.90543
G1 X16.393 Y177.852 E17.93784
G1 X15.569 Y177.402 E17.96906
G1 X14.719 Y176.833 E18.00309
G1 X13.757 Y176.034 E18.04468
G1 X13.225 Y175.528 E18.0691
G1 X11.089 Y173.39 E18.16962
G1 X10.611 Y172.898 E18.19243
G1 X9.988 Y172.197 E18.22362
G1 X9.387 Y171.387 E18.25717
G1 X8.914 Y170.618 E18.2872
G1 X8.444 Y169.667 E18.32248
G1 X7.98 Y168.412 E18.36698
G1 X7.798 Y167.786 E18.38867
G1 X7.026 Y164.909 E18.48774
G1 X6.848 Y164.208 E18.5118
G1 X6.664 Y163.324 E18.54183
G1 X6.543 Y162.299 E18.57616
G1 X6.518 Y161.722 E18.59537
G1 X6.5 Y160.632 E18.63162
G1 X6.501 Y66.509 E21.76217
G1 X6.513 Y65.807 E21.78552
G1 X6.573 Y64.834 E21.81794
G1 X6.72 Y63.873 E21.85028
G1 X6.951 Y62.925 E21.88273
G1 X7.253 Y62.036 E21.91396
G1 X7.66 Y61.114 E21.94748
G1 X8.131 Y60.262 E21.97986
G1 X8.676 Y59.455 E22.01225
G1 X9.267 Y58.725 E22.04349
G1 X9.97 Y58 E22.07708
G1 X10.707 Y57.366 E22.10941
G1 X11.498 Y56.797 E22.14182
G1 X12.337 Y56.3 E22.17425
G1 X13.151 Y55.909 E22.20429
G1 X14.112 Y55.546 E22.23846
G1 X14.597 Y55.4 E22.2553
G0 F6000 X14.703 Y55.786
G1 F1200 X17.752 Y54.949 E22.36046
G1 X20.139 Y54.215 E22.44352
G1 X24.013 Y52.872 E22.5799
G1 X25.282 Y52.519 E22.62371
G1 X25.619 Y52.447 E22.63517
G1 X26.51 Y52.298 E22.66521
G1 X27.599 Y52.221 E22.70153
G1 X28.674 Y52.204 E22.73728
G1 X29.306 Y52.211 E22.75831
G1 X30.242 Y52.263 E22.78949
G1 X31.136 Y52.392 E22.81953
G1 X31.69 Y52.51 E22.83837
G1 X33.676 Y52.99 E22.90632
G1 X36.207 Y53.551 E22.99255
G1 X38.68 Y54.027 E23.07631
G1 X41.16 Y54.43 E23.15988
G1 X43.642 Y54.763 E23.24317
G1 X46.169 Y55.029 E23.32768
G1 X48.693 Y55.223 E23.41188
G1 X51.226 Y55.346 E23.49623
G1 X54.354 Y55.4 E23.60028
G1 X216.945 Y55.401 E29.00808
G1 X217.66 Y55.412 E29.03186
G1 X218.597 Y55.468 E29.06308
G1 X219.525 Y55.607 E29.09429
G1 X220.438 Y55.828 E29.12553
G1 X221.294 Y56.116 E29.15557
G1 X222.186 Y56.506 E29.18795
G1 X223.007 Y56.959 E29.21914
G1 X223.758 Y57.461 E29.24919
G1 X224.517 Y58.073 E29.28161
G1 X225.191 Y58.726 E29.31283
G1 X225.805 Y59.435 E29.34402
G1 X226.355 Y60.196 E29.37525
G1 X226.817 Y60.972 E29.40529
G1 X227.24 Y61.849 E29.43767
G1 X227.569 Y62.727 E29.46886
G1 X227.82 Y63.632 E29.5001
G1 X227.991 Y64.559 E29.53145
G1 X228.086 Y65.689 E29.56916
G1 X228.1 Y66.33 E29.59049
G1 X228.099 Y160.957 E32.7378
G1 X228.087 Y161.685 E32.76201
G1 X228.03 Y162.619 E32.79314
G1 X227.919 Y163.392 E32.81911
G1 X227.773 Y164.188 E32.84603
G1 X227.43 Y165.906 E32.9043
G1 X227.275 Y166.624 E32.92873
G1 X227.045 Y167.497 E32.95875
G1 X226.716 Y168.413 E32.99112
G1 X226.319 Y169.266 E33.02242
G1 X225.819 Y170.125 E33.05548
G1 X225.417 Y170.746 E33.08008
G1 X224.487 Y172.139 E33.13579
G1 X224.01 Y172.832 E33.16377
G1 X223.441 Y173.579 E33.195
G1 X222.809 Y174.273 E33.22622
G1 X222.117 Y174.909 E33.25748
G1 X221.33 Y175.51 E33.29042
G1 X220.691 Y175.951 E33.31624
G1 X219.218 Y176.934 E33.37514
G1 X218.603 Y177.331 E33.39949
G1 X217.792 Y177.804 E33.43071
G1 X216.976 Y178.19 E33.46074
G1 X216.06 Y178.527 E33.4932
G1 X215.104 Y178.781 E33.5261
G1 X214.315 Y178.949 E33.55293
G1 X212.744 Y179.263 E33.60622
G1 X211.814 Y179.43 E33.63764
G1 X210.918 Y179.549 E33.6677
G1 X210.12 Y179.59 E33.69428
G1 X209.318 Y179.6 E33.72096
G1 X25.552 Y179.599 E39.83304
G1 X24.852 Y179.588 E39.85632
G1 X23.914 Y179.532 E39.88758
G1 X23.021 Y179.399 E39.91761
G1 X22.456 Y179.274 E39.93685
G1 X21.402 Y179.009 E39.973
G1 X19.043 Y178.377 E40.05423
G1 X18.335 Y178.175 E40.07872
G1 X17.445 Y177.877 E40.10993
G1 X16.585 Y177.501 E40.14115
G1 X15.761 Y177.051 E40.17238
G1 X14.975 Y176.525 E40.20383
G1 X14.013 Y175.726 E40.24543
G1 X13.508 Y175.245 E40.26862
G1 X11.376 Y173.111 E40.36895
G1 X10.91 Y172.632 E40.39118
G1 X10.287 Y171.931 E40.42237
G1 X9.728 Y171.177 E40.45359
G1 X9.255 Y170.408 E40.48362
G1 X8.819 Y169.528 E40.51628
G1 X8.364 Y168.3 E40.55984
G1 X8.184 Y167.682 E40.58125
G1 X7.414 Y164.81 E40.68015
G1 X7.24 Y164.126 E40.70362
G1 X7.056 Y163.242 E40.73365
G1 X6.943 Y162.281 E40.76584
G1 X6.918 Y161.715 E40.78468
G1 X6.9 Y160.632 E40.82071
G1 X6.901 Y66.515 E43.95105
G1 X6.912 Y65.831 E43.9738
G1 X6.969 Y64.894 E44.00502
G1 X7.109 Y63.967 E44.03621
G1 X7.33 Y63.054 E44.06745
G1 X7.632 Y62.165 E44.09868
G1 X8.01 Y61.307 E44.12986
G1 X8.463 Y60.485 E44.16108
G1 X8.987 Y59.707 E44.19228
G1 X9.578 Y58.977 E44.22352
G1 X10.231 Y58.303 E44.25473
G1 X10.941 Y57.69 E44.28593
G1 X11.702 Y57.141 E44.31714
G1 X12.51 Y56.661 E44.3484
G1 X13.324 Y56.27 E44.37843
G1 X14.227 Y55.929 E44.41054
G1 X14.703 Y55.786 E44.42707
G0 F6000 X14.809 Y56.172
G1 F1200 X17.858 Y55.335 E44.53223
G1 X20.27 Y54.593 E44.61616
G1 X24.144 Y53.25 E44.75253
G1 X25.365 Y52.91 E44.79469
G1 X25.685 Y52.842 E44.80557
G1 X26.576 Y52.693 E44.83562
G1 X27.605 Y52.621 E44.86993
G1 X28.67 Y52.604 E44.90535
G1 X29.284 Y52.61 E44.92577
G1 X30.185 Y52.659 E44.95579
G1 X31.079 Y52.788 E44.98583
G1 X31.596 Y52.899 E45.00342
G1 X33.589 Y53.381 E45.07161
G1 X36.12 Y53.942 E45.15784
G1 X38.606 Y54.42 E45.24204
G1 X41.096 Y54.825 E45.32594
G1 X43.6 Y55.161 E45.40997
G1 X46.132 Y55.428 E45.49466
G1 X48.674 Y55.623 E45.57945
G1 X51.207 Y55.746 E45.6638
G1 X54.347 Y55.8 E45.76825
G1 X216.939 Y55.801 E51.17608
G1 X217.637 Y55.811 E51.1993
G1 X218.539 Y55.864 E51.22935
G1 X219.432 Y55.996 E51.25938
G1 X220.31 Y56.207 E51.28941
G1 X221.166 Y56.495 E51.31945
G1 X221.993 Y56.857 E51.34948
G1 X222.785 Y57.292 E51.37953
G1 X223.536 Y57.794 E51.40957
G1 X224.239 Y58.361 E51.43961
G1 X224.889 Y58.988 E51.46965
G1 X225.481 Y59.67 E51.49969
G1 X226.011 Y60.401 E51.52972
G1 X226.473 Y61.177 E51.55976
G1 X226.866 Y61.99 E51.58979
G1 X227.184 Y62.835 E51.61982
G1 X227.427 Y63.705 E51.64987
G1 X227.592 Y64.593 E51.67991
G1 X227.687 Y65.723 E51.71762
G1 X227.7 Y66.33 E51.73782
G1 X227.699 Y160.951 E54.88492
G1 X227.688 Y161.661 E54.90854
G1 X227.634 Y162.563 E54.93859
G1 X227.526 Y163.32 E54.96403
G1 X227.381 Y164.11 E54.99074
G1 X227.039 Y165.822 E55.04881
G1 X226.888 Y166.522 E55.07263
G1 X226.658 Y167.395 E55.10265
G1 X226.353 Y168.245 E55.13269
G1 X225.973 Y169.065 E55.16275
G1 X225.483 Y169.908 E55.19518
G1 X225.084 Y170.524 E55.21959
G1 X224.158 Y171.912 E55.27509
G1 X223.691 Y172.59 E55.30247
G1 X223.145 Y173.31 E55.33252
G1 X222.538 Y173.979 E55.36257
G1 X221.874 Y174.591 E55.3926
G1 X221.103 Y175.181 E55.42489
G1 X220.469 Y175.618 E55.4505
G1 X219.001 Y176.598 E55.50921
G1 X218.401 Y176.986 E55.53297
G1 X217.621 Y177.442 E55.56303
G1 X216.805 Y177.828 E55.59305
G1 X215.957 Y178.14 E55.6231
G1 X215.001 Y178.394 E55.656
G1 X214.237 Y178.557 E55.68198
G1 X212.673 Y178.869 E55.73503
G1 X211.761 Y179.033 E55.76585
G1 X210.865 Y179.152 E55.79591
G1 X210.115 Y179.19 E55.82089
G1 X209.318 Y179.2 E55.8474
G1 X25.558 Y179.199 E61.95928
G1 X24.875 Y179.189 E61.982
G1 X23.973 Y179.136 E62.01205
G1 X23.08 Y179.003 E62.04208
G1 X22.553 Y178.886 E62.06004
G1 X21.506 Y178.623 E62.09594
G1 X19.153 Y177.992 E62.17697
G1 X18.461 Y177.795 E62.2009
G1 X17.604 Y177.51 E62.23094
G1 X16.776 Y177.15 E62.26097
G1 X15.983 Y176.718 E62.291
G1 X15.231 Y176.217 E62.32106
G1 X14.269 Y175.418 E62.36265
G1 X13.791 Y174.962 E62.38462
G1 X11.663 Y172.832 E62.48476
G1 X11.209 Y172.366 E62.5064
G1 X10.608 Y171.692 E62.53644
G1 X10.069 Y170.967 E62.56648
G1 X9.596 Y170.198 E62.59651
G1 X9.194 Y169.389 E62.62656
G1 X8.748 Y168.188 E62.66917
G1 X8.57 Y167.579 E62.69027
G1 X7.802 Y164.711 E62.78902
G1 X7.632 Y164.044 E62.81192
G1 X7.448 Y163.16 E62.84195
G1 X7.343 Y162.263 E62.87199
G1 X7.318 Y161.708 E62.89046
G1 X7.3 Y160.632 E62.92626
G1 X7.301 Y66.521 E66.0564
G1 X7.311 Y65.855 E66.07856
G1 X7.365 Y64.953 E66.10861
G1 X7.498 Y64.06 E66.13864
G1 X7.709 Y63.182 E66.16867
G1 X7.998 Y62.326 E66.19872
G1 X8.361 Y61.499 E66.22876
G1 X8.795 Y60.708 E66.25877
G1 X9.298 Y59.958 E66.28881
G1 X9.866 Y59.255 E66.31887
G1 X10.493 Y58.605 E66.3489
G1 X11.175 Y58.014 E66.37892
G1 X11.907 Y57.485 E66.40896
G1 X12.683 Y57.022 E66.43901
G1 X13.497 Y56.631 E66.46905
G1 X14.342 Y56.312 E66.49909
G1 X14.809 Y56.172 E66.5153
G1 F2700 E61.5153
G0 F6000 X27.066 Y63.253
G1 F2700 E66.5153
G1 F1200 X27.547 Y63.068 E66.53245
G1 X27.847 Y63.005 E66.54264
G1 X29.168 Y63 E66.58658
G1 X29.707 Y63.14 E66.6051
G1 X29.985 Y63.27 E66.61531
G1 X30.076 Y63.338 E66.61909
G1 X30.098 Y63.352 E66.61995
G1 X30.416 Y63.532 E66.63211
G1 X30.64 Y63.756 E66.64264
G1 X30.804 Y63.998 E66.65237
G1 X31.045 Y64.5 E66.67089
G1 X31.054 Y64.517 E66.67153
G1 X31.094 Y64.583 E66.67409
G1 X31.279 Y65 E66.68927
G1 X25.716 Y65 E66.87429
G1 X25.902 Y64.577 E66.88966
G1 X26.049 Y64.301 E66.90006
G1 X26.053 Y64.292 E66.90039
G1 X26.194 Y63.993 E66.91139
G1 X26.405 Y63.718 E66.92291
G1 X26.565 Y63.569 E66.93019
G1 X27.066 Y63.253 E66.94989
G0 F6000 X27.25 Y63.61
G1 F1200 X27.661 Y63.452 E66.96453
G1 X27.886 Y63.405 E66.97218
G1 X29.118 Y63.4 E67.01315
G1 X29.572 Y63.518 E67.02876
G1 X29.776 Y63.613 E67.03624
G1 X29.837 Y63.659 E67.03878
G1 X29.901 Y63.701 E67.04133
G1 X30.173 Y63.854 E67.05171
G1 X30.329 Y64.012 E67.05909
G1 X30.456 Y64.198 E67.06658
G1 X30.649 Y64.6 E67.08141
G1 X26.343 Y64.6 E67.22463
G1 X26.402 Y64.489 E67.22881
G1 X26.415 Y64.462 E67.22981
G1 X26.537 Y64.202 E67.23936
G1 X26.703 Y63.986 E67.24842
G1 X26.808 Y63.889 E67.25318
G1 X27.25 Y63.61 E67.27056
G0 F6000 X27.428 Y63.969
G1 F1200 X27.77 Y63.838 E67.28274
G1 X27.93 Y63.805 E67.28818
G1 X29.068 Y63.8 E67.32603
G1 X29.431 Y63.894 E67.3385
G1 X29.572 Y63.961 E67.34369
G1 X29.597 Y63.979 E67.34472
G1 X29.705 Y64.049 E67.349
G1 X29.928 Y64.175 E67.35752
G1 X29.953 Y64.2 E67.35869
G1 X27.063 Y64.2 E67.45481
G1 X27.428 Y63.969 E67.46918
G1 F2700 E62.46918
;MESH:Housing_new_split_lower.obj
G0 F6000 X16.847 Y65.347
G0 X16.836 Y161.587
G0 X17.911 Y165.594
G0 X20.906 Y168.589
G0 X24.803 Y169.635
G0 X25.026 Y168.8
;TYPE:WALL-OUTER
G1 F2700 E67.46918
G1 F1200 X21.357 Y167.817 E67.59552
G1 X18.683 Y165.143 E67.72129
G1 X17.7 Y161.474 E67.84763
G1 X17.7 Y66.2 E71.01645
G1 X217.3 Y66.2 E77.65518
G1 X217.3 Y161.479 E80.82417
G1 X216.739 Y164.292 E80.91957
G1 X215.158 Y166.658 E81.01422
G1 X212.792 Y168.239 E81.10886
G1 X209.979 Y168.8 E81.20427
G1 X25.026 Y168.8 E87.35583
G0 F6000 X25.073 Y168.44
;TYPE:SKIN
G1 F1200 X21.547 Y167.496 E87.47723
G1 X19.004 Y164.953 E87.59685
G1 X18.061 Y161.426 E87.71828
G1 X18.06 Y66.56 E90.87353
G1 X216.94 Y66.56 E97.48831
G1 X216.94 Y161.442 E100.6441
G1 X216.399 Y164.152 E100.73601
G1 X214.898 Y166.398 E100.82586
G1 X212.652 Y167.899 E100.91571
G1 X209.942 Y168.44 E101.00762
G1 X25.073 Y168.44 E107.15639
G1 F2700 E102.15639
G0 F6000 X24.757 Y169.623
G0 X21.128 Y168.65
G0 X22.038 Y167.419
G1 F2700 E107.15639
G1 F1200 X19.079 Y164.46 E107.29557
G0 F6000 X18.872 Y163.688
G1 F1200 X22.811 Y167.626 E107.48083
G0 F6000 X23.583 Y167.833
G1 F1200 X18.666 Y162.915 E107.71213
G0 F6000 X18.459 Y162.143
G1 F1200 X24.355 Y168.039 E107.98946
G0 F6000 X25.12 Y168.239
G1 F1200 X18.26 Y161.378 E108.31216
G0 F6000 X18.26 Y160.813
G1 F1200 X25.686 Y168.239 E108.66145
G0 F6000 X26.252 Y168.239
G1 F1200 X18.26 Y160.247 E109.03737
G0 F6000 X18.26 Y159.681
G1 F1200 X26.817 Y168.239 E109.43989
G0 F6000 X27.383 Y168.239
G1 F1200 X18.26 Y159.115 E109.86903
G0 F6000 X18.26 Y158.55
G1 F1200 X27.949 Y168.239 E110.32477
G0 F6000 X28.514 Y168.239
G1 F1200 X18.26 Y157.984 E110.80711
G0 F6000 X18.26 Y157.418
G1 F1200 X29.08 Y168.239 E111.31608
G0 F6000 X29.646 Y168.239
G1 F1200 X18.26 Y156.853 E111.85164
G0 F6000 X18.26 Y156.287
G1 F1200 X30.211 Y168.239 E112.4138
G0 F6000 X30.777 Y168.239
G1 F1200 X18.26 Y155.721 E113.00259
G0 F6000 X18.26 Y155.156
G1 F1200 X31.343 Y168.239 E113.61797
G0 F6000 X31.908 Y168.239
G1 F1200 X18.26 Y154.59 E114.25995
G0 F6000 X18.26 Y154.024
G1 F1200 X32.474 Y168.239 E114.92856
G0 F6000 X33.04 Y168.239
G1 F1200 X18.26 Y153.459 E115.62377
G0 F6000 X18.26 Y152.893
G1 F1200 X33.605 Y168.239 E116.34557
G0 F6000 X34.171 Y168.239
G1 F1200 X18.26 Y152.327 E117.094
G0 F6000 X18.26 Y151.762
G1 F1200 X34.737 Y168.239 E117.86903
G0 F6000 X35.303 Y168.239
G1 F1200 X18.26 Y151.196 E118.67068
G0 F6000 X18.26 Y150.63
G1 F1200 X35.868 Y168.239 E119.49893
G0 F6000 X36.434 Y168.239
G1 F1200 X18.26 Y150.065 E120.35378
G0 F6000 X18.26 Y149.499
G1 F1200 X37 Y168.239 E121.23525
G0 F6000 X37.565 Y168.239
G1 F1200 X18.26 Y148.933 E122.14332
G0 F6000 X18.26 Y148.367
G1 F1200 X38.131 Y168.239 E123.07802
G0 F6000 X38.697 Y168.239
G1 F1200 X18.26 Y147.802 E124.03931
G0 F6000 X18.26 Y147.236
G1 F1200 X39.262 Y168.239 E125.0272
G0 F6000 X39.828 Y168.239
G1 F1200 X18.26 Y146.67 E126.04172
G0 F6000 X18.26 Y146.105
G1 F1200 X40.394 Y168.239 E127.08283
G0 F6000 X40.959 Y168.239
G1 F1200 X18.26 Y145.539 E128.15055
G0 F6000 X18.26 Y144.973
G1 F1200 X41.525 Y168.239 E129.24489
G0 F6000 X42.091 Y168.239
G1 F1200 X18.26 Y144.408 E130.36582
G0 F6000 X18.26 Y143.842
